<?xml version="1.0" encoding="UTF-8"?>
<map version="1.10" tiledversion="1.10.2" orientation="orthogonal" renderorder="right-down" width="30" height="30" tilewidth="32" tileheight="32" infinite="0" nextlayerid="8" nextobjectid="1">
 <editorsettings>
  <export target="../resources/maps/room.lua" format="lua"/>
 </editorsettings>
 <tileset firstgid="1" name="Floor2" tilewidth="32" tileheight="32" tilecount="8160" columns="60">
  <image source="images/Floor2.png" width="1920" height="4352"/>
 </tileset>
 <tileset firstgid="8161" name="Terrain" tilewidth="32" tileheight="32" tilecount="7840" columns="80">
  <image source="images/Terrain.png" width="2560" height="3136"/>
 </tileset>
 <tileset firstgid="16001" name="Wall" tilewidth="32" tileheight="32" tilecount="8025" columns="25">
  <image source="images/Wall.png" width="800" height="10272"/>
 </tileset>
 <tileset firstgid="24026" name="Exterior Decoration" tilewidth="32" tileheight="32" tilecount="5520" columns="40">
  <image source="images/Exterior Decoration.png" width="1280" height="4416"/>
 </tileset>
 <tileset firstgid="29546" name="Plants" tilewidth="32" tileheight="32" tilecount="920" columns="20">
  <image source="images/Plants.png" width="640" height="1472"/>
 </tileset>
 <tileset firstgid="30466" name="free-icon-single-bed-1421401" tilewidth="32" tileheight="32" tilecount="16" columns="4">
  <image source="images/free-icon-single-bed-1421401.png" width="128" height="128"/>
 </tileset>
 <tileset firstgid="30482" name="free-icon-potty-5238431" tilewidth="32" tileheight="32" tilecount="16" columns="4">
  <image source="images/free-icon-potty-5238431.png" width="128" height="128"/>
 </tileset>
 <tileset firstgid="30498" name="free-icon-bookshelf-1703124" tilewidth="32" tileheight="32" tilecount="16" columns="4">
  <image source="images/free-icon-bookshelf-1703124.png" width="128" height="128"/>
 </tileset>
 <tileset firstgid="30514" name="free-icon-desk-4823906" tilewidth="32" tileheight="32" tilecount="16" columns="4">
  <image source="images/free-icon-desk-4823906.png" width="128" height="128"/>
 </tileset>
 <tileset firstgid="30530" name="free-icon-bedside-lamp-15555408" tilewidth="32" tileheight="32" tilecount="16" columns="4">
  <image source="images/free-icon-bedside-lamp-15555408.png" width="128" height="128"/>
 </tileset>
 <tileset firstgid="30546" name="free-icon-hair-wash-sink-4397908" tilewidth="32" tileheight="32" tilecount="16" columns="4">
  <image source="images/free-icon-hair-wash-sink-4397908.png" width="128" height="128"/>
 </tileset>
 <tileset firstgid="30562" name="free-icon-towel-2729761" tilewidth="32" tileheight="32" tilecount="4" columns="2">
  <image source="images/free-icon-towel-2729761.png" width="64" height="64"/>
 </tileset>
 <tileset firstgid="30566" name="free-icon-sink-5532276 (1)" tilewidth="32" tileheight="32" tilecount="4" columns="2">
  <image source="images/free-icon-sink-5532276 (1).png" width="64" height="64"/>
 </tileset>
 <tileset firstgid="30570" name="free-icon-shoe-rack-3609531" tilewidth="32" tileheight="32" tilecount="4" columns="2">
  <image source="images/free-icon-shoe-rack-3609531.png" width="64" height="64"/>
 </tileset>
 <tileset firstgid="30574" name="free-icon-end-table-8812022" tilewidth="32" tileheight="32" tilecount="16" columns="4">
  <image source="images/free-icon-end-table-8812022.png" width="128" height="128"/>
 </tileset>
 <tileset firstgid="30590" name="free-icon-armchair-5488448" tilewidth="32" tileheight="32" tilecount="4" columns="2">
  <image source="images/free-icon-armchair-5488448.png" width="64" height="64"/>
 </tileset>
 <tileset firstgid="30594" name="free-icon-television-261602 (1)" tilewidth="32" tileheight="32" tilecount="16" columns="4">
  <image source="images/free-icon-television-261602 (1).png" width="128" height="128"/>
 </tileset>
 <tileset firstgid="30610" name="free-icon-sofa-4152740" tilewidth="32" tileheight="32" tilecount="16" columns="4">
  <image source="images/free-icon-sofa-4152740.png" width="128" height="128"/>
 </tileset>
 <tileset firstgid="30626" name="free-icon-sofa-1678863" tilewidth="32" tileheight="32" tilecount="16" columns="4">
  <image source="images/free-icon-sofa-1678863.png" width="128" height="128"/>
 </tileset>
 <tileset firstgid="30642" name="free-icon-sofa-2361649" tilewidth="32" tileheight="32" tilecount="16" columns="4">
  <image source="images/free-icon-sofa-2361649.png" width="128" height="128"/>
 </tileset>
 <tileset firstgid="30658" name="free-icon-blanket-187593" tilewidth="32" tileheight="32" tilecount="64" columns="8">
  <image source="images/free-icon-blanket-187593.png" width="256" height="256"/>
 </tileset>
 <tileset firstgid="30722" name="free-icon-doormat-8106951" tilewidth="32" tileheight="32" tilecount="64" columns="8">
  <image source="images/free-icon-doormat-8106951.png" width="256" height="256"/>
 </tileset>
 <tileset firstgid="30786" name="free-icon-cat-house-6774433" tilewidth="32" tileheight="32" tilecount="16" columns="4">
  <image source="images/free-icon-cat-house-6774433.png" width="128" height="128"/>
 </tileset>
 <tileset firstgid="30802" name="free-icon-fishbowl-1650548" tilewidth="32" tileheight="32" tilecount="4" columns="2">
  <image source="images/free-icon-fishbowl-1650548.png" width="64" height="64"/>
 </tileset>
 <layer id="7" name="타일" width="30" height="30">
  <data encoding="csv">
3318,3318,3318,3318,3318,3318,3318,3318,3318,3318,3318,3318,3318,3318,3318,3318,3318,3318,3318,3318,3318,3318,3318,3318,3318,3318,3318,3318,3318,3318,
3318,3318,3318,3318,3318,3318,3318,3318,3318,3318,3318,3318,3318,3318,3318,3318,3318,3318,3318,3318,3318,3318,3318,3318,3318,3318,3318,3318,3318,3318,
3318,3318,3318,3318,3318,3318,3318,3318,3318,3318,3318,3318,3318,3318,3318,3318,3318,3318,3318,3318,3318,3318,3318,3318,3318,3318,3318,3318,3318,3318,
3318,3318,3318,3318,3318,3318,3318,3318,3318,3318,3318,3318,3318,3318,3318,3318,3318,3318,3318,3318,3318,3318,3318,3318,3318,3318,3318,3318,3318,3318,
3318,3318,3318,3318,3318,3318,3318,3318,3318,3318,3318,3318,3318,3318,3318,3318,3318,3318,3318,3318,3318,3318,3318,3318,3318,3318,3318,3318,3318,3318,
3318,3318,3318,3318,3318,3318,3318,3318,3318,3318,3318,3318,3318,3318,3318,3318,3318,3318,3318,3318,3318,3318,3318,3318,3318,3318,3318,3318,3318,3318,
3318,3318,3318,3318,3318,3318,3318,3318,3318,3318,3318,3318,3318,3318,3318,3318,3318,3318,3318,3318,3318,3318,3318,3318,3318,3318,3318,3318,3318,3318,
3318,3318,3318,3318,3318,3318,3318,3318,3318,3318,3318,3318,3318,3318,3318,3318,3318,3318,3318,3318,3318,3318,3318,3318,3318,3318,3318,3318,3318,3318,
3318,3318,3318,3318,3318,3318,3318,3318,3318,3318,3318,3318,3318,3318,3318,3318,3318,3318,3318,3318,3318,3318,3318,3318,3318,3318,3318,3318,3318,3318,
3318,3318,3318,3318,3318,3318,3318,3318,3318,3318,3318,3318,3318,3318,3318,3318,3318,3318,3318,3318,3318,3318,3318,3318,3318,3318,3318,3318,3318,3318,
3318,3318,3318,3318,3318,3318,3318,3318,3318,3318,3318,3318,3318,3318,3318,3318,3318,3318,3318,3318,3318,3318,3318,3318,3318,3318,3318,3318,3318,3318,
3318,3318,3318,3318,3318,3318,3318,3318,3318,3318,3318,3318,3318,3318,3318,3318,3318,3318,3318,3318,3318,3318,3318,3318,3318,3318,3318,3318,3318,3318,
3318,3318,3318,3318,3318,3318,3318,3318,3318,3318,3318,3318,3318,3318,3318,3318,3318,3318,3318,3318,3318,3318,3318,3318,3318,3318,3318,3318,3318,3318,
3318,3318,3318,3318,3318,3318,3318,3318,3318,3318,3318,3318,3318,3318,3318,3318,3318,3318,3318,3318,3318,3318,3318,3318,3318,3318,3318,3318,3318,3318,
3318,3318,3318,3318,3318,3318,3318,3318,3318,3318,3318,3318,3318,3318,3318,3318,3318,3318,3318,3318,3318,3318,3318,3318,3318,3318,3318,3318,3318,3318,
3318,3318,3318,3318,3318,3318,3318,3318,3318,3318,3318,3318,3318,3318,3318,3318,3318,3318,3318,3318,3318,3318,3318,3318,3318,3318,3318,3318,3318,3318,
3318,3318,3318,3318,3318,3318,3318,3318,3318,3318,3318,3318,3318,3318,3318,3318,3318,3318,3318,3318,3318,3318,3318,3318,3318,3318,3318,3318,3318,3318,
3318,3318,3318,3318,3318,3318,3318,3318,3318,3318,3318,3318,3318,3318,3318,3318,3318,3318,3318,3318,3318,3318,3318,3318,3318,3318,3318,3318,3318,3318,
3318,3318,3318,3318,3318,3318,3318,3318,3318,3318,3318,3318,3318,3318,3318,3318,3318,3318,3318,3318,3318,3318,3318,30590,30591,3318,3318,3318,3318,3318,
3318,3318,3318,3318,3318,3318,3318,3318,3318,3318,3318,3318,3318,3318,3318,3318,3318,3318,3318,3318,24226,24227,24226,24227,24228,3318,3318,3318,3318,3318,
3318,3318,3318,3318,3318,3318,3318,3318,3318,3318,3318,3318,3318,3318,3318,3318,3318,3318,3318,3318,3318,3318,24226,24227,24228,3318,3318,3318,3318,3318,
3318,3318,3318,3318,3318,3318,3318,3318,3318,3318,3318,3318,3318,3318,3318,3318,3318,3318,3318,3318,3318,30590,24226,24226,24227,24228,3318,3318,3318,3318,
3318,3318,3318,3318,3318,3318,3318,3318,3318,3318,3318,3318,3318,3318,3318,3318,3318,3318,3318,3318,3318,3318,30593,24226,24227,24228,3318,3318,3318,3318,
3318,3318,3318,3318,3318,3318,3318,3318,3318,3318,3318,3318,3318,3318,3318,3318,3318,3318,3318,3318,3318,3318,3318,3318,3318,3318,3318,3318,3318,3318,
3318,3318,3318,3318,3318,3318,3318,3318,3318,3318,3318,3318,3318,3318,3318,3318,3318,3318,3318,3318,3318,3318,3318,3318,3318,3318,3318,3318,3318,3318,
3318,3318,3318,3318,3318,3318,3318,3318,3318,3318,3318,3318,3318,3318,3318,3318,3318,3318,3318,3318,3318,3318,3318,3318,3318,3318,3318,3318,3318,3318,
3318,3318,3318,3318,3318,3318,3318,3318,3318,3318,3318,3318,3318,3318,3318,3318,3318,3318,3318,3318,3318,3318,3318,3318,3318,3318,3318,3318,3318,3318,
3318,3318,3318,3318,3318,3318,3318,3318,3318,3318,3318,3318,3318,3318,3318,3318,3318,3318,3318,3318,3318,3318,3318,3318,3318,3318,3318,3318,3318,3318,
3318,3318,3318,3318,3318,3318,3318,3318,3318,3318,3318,3318,3318,3318,3318,3318,3318,3318,3318,3318,3318,3318,3318,3318,3318,3318,3318,3318,3318,3318,
3318,3318,3318,3318,3318,3318,3318,3318,3318,3318,3318,3318,3318,3318,3318,3318,3318,3318,3318,3318,3318,3318,3318,3318,3318,3318,3318,3318,3318,3318
</data>
 </layer>
 <layer id="1" name="바닥" width="30" height="30">
  <data encoding="csv">
1741,1802,1803,1803,1803,1741,1803,1802,1802,1742,1802,1802,1743,1803,1742,1743,1802,1801,1742,1803,1801,1741,1802,1803,1803,1803,1741,1742,1743,1803,
1801,1802,1801,1801,1801,1801,1803,1801,1741,1743,1801,1802,1741,1743,1803,1803,1742,1801,1801,1741,1743,1801,1801,1802,1741,1802,1803,1743,1801,1743,
1803,1801,1741,1742,1801,1741,1743,1743,1743,1741,1802,1741,1742,1802,1742,1742,1801,1743,1803,1742,2941,2941,2941,2941,2941,2941,2941,2941,2941,1802,
1741,1743,1741,1743,1743,1743,1803,1801,1742,1741,1741,1802,1743,1743,1803,1802,1743,1801,1801,1803,2941,2941,2941,2941,2941,2941,2941,2941,2941,1741,
1742,1742,1742,1741,1802,1742,1741,1801,1801,1802,1801,1743,1803,1741,1743,1803,1803,1802,1742,1803,2941,2941,2941,2941,2941,2941,2941,2941,2941,1741,
1802,1741,1743,1741,1742,1802,1803,1741,1742,1802,1743,1802,1741,1802,1743,1803,1803,1742,1801,1741,2941,2941,2941,2941,2941,2941,2941,2941,2941,1741,
1741,1802,1802,1741,1801,1801,1801,1803,1742,1801,1802,1802,1743,1742,1741,1801,1742,1802,1801,1802,2941,2941,2941,2941,2941,2941,2941,2941,2941,1801,
1741,1803,1801,1742,1742,1802,1802,1801,1742,1742,1741,1743,1802,1802,1741,1742,1802,1741,1802,1802,2941,2941,2941,2941,2941,2941,2941,2941,2941,1742,
1741,1802,1801,1743,1801,1742,1802,1742,1742,1741,1802,1801,1803,1801,1801,1802,1743,1743,1741,1743,2941,2941,2941,2941,2941,2941,2941,2941,2941,1743,
1742,1803,1743,1741,1801,1741,1743,1741,1741,1803,1801,1803,1801,1803,1741,1741,1803,1742,1743,1743,2941,2941,2941,2941,2941,2941,2941,2941,2941,1801,
1741,1742,1801,1743,1741,1741,1741,1742,1741,1742,1801,1741,1743,1801,1743,1741,1743,1743,1741,1802,2941,2941,2941,2941,2941,2941,2941,2941,2941,1741,
1801,1803,1743,1802,1803,1803,1801,1743,1742,1802,1743,1742,1741,1742,1743,1802,1801,1741,1743,1743,1743,1802,1802,1803,1802,1803,1802,1803,1742,1803,
1801,1803,1803,1741,1801,1743,1802,1743,1801,1741,1742,1741,1741,1742,1801,1802,1742,1803,1743,1803,1741,1803,1743,1743,1742,1803,1802,1741,1741,1803,
1802,1801,1803,1741,1741,1801,1743,1741,1743,1741,1742,1802,1743,1742,1742,1743,1802,1801,1802,1743,1802,1801,1741,1741,1802,1742,1803,1742,1742,1742,
1742,1742,1741,1802,1802,1802,1803,1801,1742,1803,1801,1741,1801,1742,1741,1743,1801,1741,1742,1801,1802,1741,1802,1802,1801,1803,1743,1801,1803,1802,
1802,1743,1803,1743,1741,1743,1742,1743,1741,1802,1803,1801,1741,1803,1741,1802,1742,1743,1802,1801,1742,1802,1743,1803,1742,1742,1803,1801,1802,1743,
1803,1801,1801,1802,1742,1741,1801,1742,1743,1802,1743,1742,1802,1801,1743,1741,1802,1741,1802,1801,1802,1802,1743,1803,1803,1803,1802,1802,1801,1742,
1801,1741,1802,1743,1801,1743,1741,1742,1803,1741,1742,1742,1801,1742,1802,1741,1741,1741,1742,1741,1802,1743,1803,1742,1803,1801,1741,1741,1741,1803,
1741,1743,1743,1802,1742,1741,1741,1801,1741,1802,1743,1802,1742,1742,1803,1803,1743,1741,1803,1741,1801,1743,1801,1743,1801,1741,1741,1801,1803,1803,
1742,1741,1741,1741,1742,1743,1741,1741,1801,1743,1801,1802,1741,1803,1803,1743,1743,1743,1801,1803,1803,1801,1741,1742,1802,1801,1803,1743,1743,1743,
1743,1742,1801,1801,1803,1742,1741,1803,1801,1742,1802,1803,1742,1742,1741,1741,1802,1743,1801,1802,1741,1742,1743,1742,1801,1743,1741,1741,1743,1803,
1743,1742,1742,1743,1803,1741,1802,1802,1803,1743,1803,1741,1801,1741,1802,1803,1742,1741,1801,1742,1801,1801,1802,1742,1803,1742,1743,1742,1742,1741,
1742,1802,1802,1803,1743,1801,1741,1741,1801,1741,1802,1742,1741,1742,1743,1803,1742,1801,1803,1803,1803,1802,1741,1743,1803,1743,1802,1743,1801,1742,
1802,1802,1802,1801,1741,1801,1743,1741,1742,1742,1802,1741,1803,1802,1741,1802,1742,1741,1801,1803,1742,1743,1743,1743,1802,1741,1743,1741,1742,1741,
1803,1803,1741,1743,1741,1802,1803,1741,1801,1742,1741,1802,1742,1743,1743,1741,1803,1803,1803,1741,1743,1741,1801,1803,1802,1742,1743,1741,1803,1803,
1802,1802,1801,1742,1803,1743,1802,1801,1743,1803,1742,1802,1742,1742,1743,1801,1742,1741,1802,1743,1743,1743,1802,1801,1516,1517,1517,1517,1518,1742,
1741,1743,1741,1801,1802,1803,1742,1741,1742,1742,1802,1803,1743,1802,1802,1803,1741,1742,1743,1801,1801,1742,1802,1801,1576,1577,0,1577,1578,1803,
1741,1802,1741,1741,1801,1742,1802,1802,1801,1743,1741,1743,1741,1801,1741,1802,1742,1741,1801,1742,1743,1802,1801,1803,1576,0,0,0,1578,1742,
1742,1801,1742,1803,1801,1742,1802,1801,1801,1742,1742,1742,1741,1801,1802,1741,1802,1741,1742,1743,1742,1803,1742,1803,0,0,0,0,0,1802,
1741,1741,1742,1803,1743,1741,1741,1742,1801,1803,1742,1742,1741,1743,1742,1742,1802,1801,1742,1803,1802,1801,1803,1742,0,0,0,0,0,1803
</data>
 </layer>
 <layer id="3" name="벽" width="30" height="30">
  <data encoding="csv">
20703,20703,20703,20703,20703,20703,20703,20703,20703,20703,20703,20703,20703,20703,20703,20703,20703,20703,20703,20703,20703,20703,20703,20703,20703,20703,20703,20703,20703,20703,
20723,20728,20728,20728,20728,20728,20728,20728,20728,20728,20728,20728,20728,20728,20728,20728,20728,20728,20728,20728,20728,20728,20728,20728,20728,20728,20728,20728,20728,20725,
20699,0,0,0,0,0,0,0,0,0,0,0,0,0,0,0,0,0,0,20699,0,0,0,0,0,0,0,0,0,20699,
20699,0,0,0,0,0,0,0,0,0,0,0,0,0,0,0,0,0,0,20699,0,0,0,0,0,0,0,0,0,20699,
20699,0,0,0,0,0,0,0,0,0,0,0,0,0,0,0,0,0,0,20699,0,0,0,0,0,0,0,0,0,20699,
20699,0,0,0,0,0,0,0,0,0,0,0,0,0,0,0,0,0,0,20699,0,0,0,0,0,0,0,0,0,20699,
20699,0,0,0,0,0,0,0,0,0,0,0,0,0,0,0,0,0,0,20699,0,0,0,0,0,0,0,0,0,20699,
20699,0,0,0,0,0,0,0,0,0,0,0,0,0,0,0,0,0,0,20699,0,0,0,0,0,0,0,0,0,20699,
20699,0,0,0,0,0,0,0,0,0,0,0,0,0,0,0,0,0,0,20699,0,0,0,0,0,0,0,0,0,20699,
20699,0,0,0,0,0,0,0,0,0,0,0,0,0,0,0,0,0,0,20699,0,0,0,0,0,0,0,0,0,20699,
20699,20703,20703,20703,20703,20703,20703,20703,20703,20703,20703,20703,20703,20703,20703,20540,20541,20542,20543,20705,20703,20703,20703,20703,20703,20703,16318,20703,20703,20699,
20699,20728,20728,20728,20728,20728,20728,20728,20728,20728,20728,20728,20728,20728,20728,20565,20566,20567,20568,20730,20728,20728,20728,20728,20728,20728,16343,20728,20728,20699,
20699,0,0,0,0,0,0,0,0,0,0,0,0,0,0,0,0,0,0,0,0,0,0,0,0,0,0,0,0,20699,
20699,0,0,0,0,0,0,0,0,0,0,0,0,0,0,0,0,0,0,0,0,0,0,0,0,0,0,0,0,20699,
20699,0,0,0,0,0,0,0,0,0,0,0,0,0,0,0,0,0,0,0,0,0,0,0,0,0,0,0,0,20699,
20699,0,0,0,0,0,0,0,0,0,0,0,0,0,0,0,0,0,0,0,0,0,0,0,0,0,0,0,0,20699,
20699,0,0,0,0,0,0,0,0,0,0,0,0,0,0,0,0,0,0,0,0,0,0,0,0,0,0,0,0,20699,
20699,0,0,0,0,0,0,0,0,0,0,0,0,0,0,0,0,0,0,0,0,0,0,0,0,0,0,0,0,20699,
20699,0,0,0,0,0,0,0,0,0,0,0,0,0,0,0,0,0,0,0,0,0,0,0,0,0,0,0,0,20699,
20699,0,0,0,0,0,0,0,0,0,0,0,0,0,0,0,0,0,0,0,0,0,0,0,0,0,0,0,0,20699,
20699,0,0,0,0,0,0,0,0,0,0,0,0,0,0,0,0,0,0,0,0,0,0,0,0,0,0,0,0,20699,
20699,0,0,0,0,0,0,0,0,0,0,0,0,0,0,0,0,0,0,0,0,0,0,0,0,0,0,0,0,20699,
20699,0,0,0,0,0,0,0,0,0,0,0,0,0,0,0,0,0,0,0,0,0,0,0,0,0,0,0,0,20699,
20699,0,0,0,0,0,0,0,0,0,0,0,0,0,0,0,0,0,0,0,0,0,0,0,0,0,0,0,0,20699,
20699,0,0,0,0,0,0,0,0,0,0,0,0,0,0,0,0,0,0,0,0,0,0,0,0,0,0,0,0,20699,
20699,0,0,0,0,0,0,0,0,0,0,0,0,0,0,0,0,0,0,0,0,0,0,0,0,0,0,0,0,20699,
20699,0,0,0,0,0,0,0,0,0,0,0,0,0,0,0,0,0,0,0,0,0,0,0,0,0,0,0,0,20699,
20699,0,0,0,0,0,0,0,0,0,0,0,0,0,0,0,0,0,0,0,0,0,0,0,0,0,0,0,0,20699,
20723,20703,20703,20703,20703,20703,20703,20703,16259,16259,20703,20703,20703,20703,20703,20703,20703,20703,20703,16259,16259,20703,20703,20703,20540,20541,20542,20542,20543,20725,
20727,20728,20728,20728,20728,20728,20728,20728,16284,16284,20728,20728,20728,20728,20728,20728,20728,20728,20728,16284,16284,20728,20728,20728,20565,20566,20567,20567,20568,20731
</data>
 </layer>
 <layer id="5" name="가구1" width="30" height="30">
  <data encoding="csv">
0,0,0,0,0,0,0,0,0,0,0,0,0,0,0,0,0,0,0,0,0,0,0,0,0,0,0,0,0,0,
0,0,0,0,0,0,30531,30532,0,0,30514,30515,30516,30517,30498,30499,30500,30501,0,0,0,0,30562,30563,0,30482,30483,30484,30485,0,
0,0,0,0,0,0,30535,30536,0,0,30518,30519,30520,30521,30502,30503,30504,30505,0,0,0,0,30564,30565,0,30486,30487,30488,30489,0,
0,0,0,0,0,0,30539,30540,0,0,30522,30523,30524,30525,30506,30507,30508,30509,0,30546,0,0,0,0,0,30490,30491,30492,30493,0,
0,30466,30467,30468,30469,0,30543,30544,0,0,30526,30527,30528,30529,30510,30511,30512,30513,0,30550,0,0,0,0,0,30494,30495,30496,30497,0,
0,30470,30471,30472,30473,0,0,0,0,0,0,30523,0,0,0,0,0,0,0,0,0,0,0,0,0,0,0,0,0,0,
0,30474,30475,30476,30477,0,0,0,0,0,0,0,0,0,0,0,0,0,0,30558,30566,30567,0,7048,7049,7050,0,0,0,0,
0,30478,30479,30480,30481,0,0,0,0,0,0,0,0,0,0,0,0,0,0,0,30568,30569,0,7108,7109,7110,30497,0,0,0,
0,0,0,0,0,0,0,0,0,0,0,0,0,0,0,0,0,0,0,0,0,0,0,0,0,0,0,0,0,0,
0,0,0,0,0,0,0,0,0,0,0,0,0,0,0,0,0,0,0,0,0,0,0,0,0,0,0,0,0,0,
0,0,0,0,30594,30595,30596,30597,0,0,0,0,28517,28518,28519,0,0,0,0,0,0,0,0,0,0,0,0,0,0,0,
0,0,0,0,30598,30599,30600,30601,0,0,0,0,28557,28558,28559,0,0,0,0,0,0,0,30802,30803,0,0,0,0,0,0,
0,0,0,0,30602,30603,30604,30605,0,0,0,0,28597,28598,28599,0,0,0,0,0,0,0,30804,30805,0,0,0,0,0,0,
0,0,0,0,30606,30607,30608,30609,0,0,0,0,0,0,0,0,0,0,0,0,0,0,0,0,0,0,0,0,0,0,
0,0,0,0,0,0,0,0,0,0,0,0,0,0,0,0,0,0,0,0,0,0,0,0,0,0,0,0,0,0,
0,0,0,0,0,0,0,0,0,0,0,0,0,0,0,0,0,0,0,0,0,0,0,0,0,0,0,0,0,0,
0,0,0,0,0,0,0,0,0,0,0,0,0,0,0,0,0,0,0,0,0,0,0,0,0,0,0,0,0,0,
0,0,30730,30731,30732,30733,3221256245,3221256244,3221256243,3221256242,0,0,0,0,0,0,0,0,0,0,0,0,0,0,0,0,0,0,0,0,
0,0,30738,30739,30740,30741,3221256237,3221256236,3221256235,3221256234,0,0,0,0,0,0,0,0,0,0,0,0,0,0,0,0,0,0,0,0,
0,0,30746,30747,30748,30749,3221256229,3221256228,3221256227,3221256226,0,0,0,0,0,0,0,0,0,0,0,0,0,0,0,0,0,0,0,0,
0,0,30754,30755,30756,30757,3221256221,3221256220,3221256219,3221256218,0,0,0,0,0,0,0,0,0,0,0,0,0,0,0,0,0,0,0,0,
0,0,30762,30763,30764,30765,3221256213,3221256212,3221256211,3221256210,0,0,0,0,0,0,0,0,0,0,0,0,0,0,0,0,0,0,0,0,
0,0,30770,30771,30772,30773,3221256205,3221256204,3221256203,3221256202,0,0,0,0,0,0,0,0,0,0,0,0,0,0,0,0,0,0,0,0,
0,0,0,0,0,0,0,0,0,0,0,0,0,0,0,0,0,0,0,0,0,0,0,0,0,0,30570,30571,0,0,
0,3221256113,3221256112,3221256111,3221256110,0,0,0,0,0,0,30786,30787,30788,30789,0,0,0,0,0,0,0,0,0,0,0,30572,30573,0,0,
0,3221256109,3221256108,3221256107,3221256106,0,0,0,0,0,0,30790,30791,30792,30793,0,0,0,0,0,0,0,0,0,0,0,0,0,0,0,
0,3221256105,3221256104,3221256103,3221256102,30646,30647,30648,30649,0,0,30794,30795,30796,30797,0,0,0,0,0,0,0,0,0,0,0,0,0,0,0,
0,3221256101,3221256100,3221256099,3221256098,30650,30651,30652,30653,0,0,30798,30799,30800,30801,0,0,0,0,0,0,0,0,0,0,0,0,0,0,0,
0,0,0,0,0,0,0,0,0,0,0,0,0,0,0,0,0,0,0,0,0,0,0,0,0,0,0,0,0,0,
0,0,0,0,0,0,0,0,0,0,0,0,0,0,0,0,0,0,0,0,0,0,0,0,0,0,0,0,0,0
</data>
 </layer>
 <layer id="6" name="가구2" width="30" height="30">
  <data encoding="csv">
0,0,0,0,0,0,0,0,0,0,0,0,0,0,0,0,0,0,0,0,0,0,0,0,0,0,0,0,0,0,
0,0,26674,26675,0,0,0,0,0,0,0,0,0,0,0,0,0,0,0,0,0,0,0,0,0,0,0,0,0,0,
0,0,26714,26715,0,0,0,0,0,0,0,0,0,0,0,0,0,0,0,0,0,0,0,0,0,0,0,0,0,0,
0,0,0,0,0,0,0,0,0,0,0,0,0,0,0,0,0,0,0,0,0,0,0,0,0,0,0,0,0,0,
0,0,0,0,0,0,0,0,0,0,0,0,0,0,0,0,0,0,0,0,0,0,0,0,0,0,0,0,0,0,
0,0,0,0,0,0,0,0,0,0,0,0,0,0,0,0,0,0,0,0,0,0,0,0,0,0,0,0,0,0,
0,0,0,0,0,0,0,0,0,0,0,0,0,0,0,0,0,0,0,0,0,0,0,0,0,0,0,0,0,0,
0,0,0,0,0,0,0,0,0,0,0,0,0,0,0,0,0,0,0,0,0,0,0,0,0,0,0,0,0,0,
0,0,0,0,0,0,0,0,0,0,0,0,0,0,0,0,0,0,0,0,0,0,0,0,0,0,0,0,0,0,
0,0,0,0,0,0,0,0,0,0,0,0,0,0,0,0,0,0,0,0,0,0,0,0,0,0,0,0,0,0,
0,0,0,0,0,0,0,0,0,0,0,0,0,0,0,0,0,0,0,0,0,0,0,0,0,0,0,0,0,0,
0,0,29666,0,0,0,0,0,0,29668,29667,0,0,0,0,0,0,0,0,0,0,0,0,0,0,0,0,0,0,0,
0,29575,29686,0,0,0,0,0,0,29688,29687,0,0,0,0,0,0,0,0,0,0,0,0,0,0,0,0,0,0,0,
0,0,0,0,0,0,0,0,0,0,0,0,0,0,0,0,0,0,0,0,0,0,0,0,0,0,0,0,0,0,
0,0,0,0,0,0,0,0,0,0,0,0,0,0,0,0,0,0,0,0,0,0,0,0,0,0,0,0,0,0,
0,0,0,0,0,0,0,0,0,0,0,0,0,0,0,0,0,0,0,0,0,0,0,0,0,0,0,0,0,0,
0,0,0,0,0,0,0,0,0,0,0,0,0,0,0,0,0,0,0,0,0,0,0,0,0,0,0,0,0,0,
0,0,0,0,0,0,0,0,0,0,0,0,0,0,0,0,0,0,0,0,0,0,0,0,0,0,0,0,0,0,
0,0,0,0,0,0,0,0,0,0,0,0,0,0,0,0,0,0,0,0,0,0,0,0,0,0,0,0,0,0,
0,0,0,0,0,0,0,0,0,0,0,0,0,0,0,0,0,0,0,0,0,0,0,0,0,0,0,0,0,0,
0,0,0,0,0,0,0,0,0,0,0,0,0,0,0,0,0,0,0,0,0,0,0,0,0,0,0,0,0,0,
0,0,0,0,0,0,30586,0,0,0,0,0,0,0,0,0,0,0,0,0,0,0,0,0,0,0,0,0,0,0,
0,0,0,0,0,0,0,0,0,0,0,0,0,0,0,0,0,0,0,0,0,0,0,0,0,0,0,0,0,0,
0,0,0,0,0,0,0,0,0,0,0,0,0,0,0,0,0,0,0,0,0,0,0,0,0,0,0,0,0,0,
0,0,0,0,0,0,0,0,0,0,0,27155,0,0,0,0,0,0,0,0,0,0,0,0,0,0,0,0,0,0,
0,0,0,0,0,0,0,0,0,0,0,0,0,0,0,0,0,0,0,0,0,0,0,0,0,0,0,0,0,0,
0,0,0,0,0,0,0,0,0,0,0,0,0,0,0,0,0,0,0,0,0,0,0,0,0,0,0,0,0,0,
0,0,0,0,0,0,0,0,0,0,0,0,0,0,0,0,0,0,0,0,0,0,0,0,0,0,0,0,0,0,
0,0,0,0,0,0,0,0,0,0,0,0,0,0,0,0,0,0,0,0,0,0,0,0,0,0,0,0,0,0,
0,0,0,0,0,0,0,0,0,0,0,0,0,0,0,0,0,0,0,0,0,0,0,0,0,0,0,0,0,0
</data>
 </layer>
</map>
