<?xml version="1.0" encoding="UTF-8"?>
<map version="1.10" tiledversion="1.10.2" orientation="orthogonal" renderorder="right-down" width="30" height="30" tilewidth="32" tileheight="32" infinite="0" nextlayerid="8" nextobjectid="1">
 <tileset firstgid="1" name="Floor2" tilewidth="32" tileheight="32" tilecount="8160" columns="60">
  <image source="../../Downloads/Floor2.png" width="1920" height="4352"/>
 </tileset>
 <tileset firstgid="8161" name="Plants" tilewidth="32" tileheight="32" tilecount="920" columns="20">
  <image source="../../Downloads/Plants.png" width="640" height="1472"/>
 </tileset>
 <tileset firstgid="9081" name="Exterior Decoration" tilewidth="32" tileheight="32" tilecount="5520" columns="40">
  <image source="../../../../../../../../Downloads/Exterior Decoration.png" width="1280" height="4416"/>
 </tileset>
 <tileset firstgid="14601" name="free-icon-ferris-wheel-9288532" tilewidth="32" tileheight="32" tilecount="16" columns="4">
  <image source="../../Downloads/free-icon-ferris-wheel-9288532.png" width="128" height="128"/>
 </tileset>
 <tileset firstgid="14617" name="free-icon-circus-tent-9288504" tilewidth="32" tileheight="32" tilecount="16" columns="4">
  <image source="../../Downloads/free-icon-circus-tent-9288504.png" width="128" height="128"/>
 </tileset>
 <tileset firstgid="14633" name="free-icon-bumper-car-9288522" tilewidth="32" tileheight="32" tilecount="16" columns="4">
  <image source="../../Downloads/free-icon-bumper-car-9288522.png" width="128" height="128"/>
 </tileset>
 <tileset firstgid="14649" name="free-icon-popcorn-cart-9288525 (1)" tilewidth="32" tileheight="32" tilecount="4" columns="2">
  <image source="../../Downloads/free-icon-popcorn-cart-9288525 (1).png" width="64" height="64"/>
 </tileset>
 <tileset firstgid="14653" name="free-icon-carousel-14112538" tilewidth="32" tileheight="32" tilecount="16" columns="4">
  <image source="../../../../../../../../Downloads/free-icon-carousel-14112538.png" width="128" height="128"/>
 </tileset>
 <tileset firstgid="14669" name="free-icon-castle-3125407" tilewidth="32" tileheight="32" tilecount="16" columns="4">
  <image source="../../../../../../../../Downloads/free-icon-castle-3125407.png" width="128" height="128"/>
 </tileset>
 <tileset firstgid="14685" name="free-icon-hot-air-balloon-9288545 (1)" tilewidth="32" tileheight="32" tilecount="4" columns="2">
  <image source="../../../../../../../../Downloads/free-icon-hot-air-balloon-9288545 (1).png" width="64" height="64"/>
 </tileset>
 <tileset firstgid="14689" name="free-icon-hot-air-balloon-3125441" tilewidth="32" tileheight="32" tilecount="4" columns="2">
  <image source="../../../../../../../../Downloads/free-icon-hot-air-balloon-3125441.png" width="64" height="64"/>
 </tileset>
 <tileset firstgid="14693" name="free-icon-cloudy-2675848" tilewidth="32" tileheight="32" tilecount="4" columns="2">
  <image source="../../../../../../../../Downloads/free-icon-cloudy-2675848.png" width="64" height="64"/>
 </tileset>
 <tileset firstgid="14697" name="free-icon-viking-ship-4244784" tilewidth="32" tileheight="32" tilecount="16" columns="4">
  <image source="../../../../../../../../Downloads/free-icon-viking-ship-4244784.png" width="128" height="128"/>
 </tileset>
 <tileset firstgid="14713" name="free-icon-clown-4244707" tilewidth="32" tileheight="32" tilecount="4" columns="2">
  <image source="../../../../../../../../Downloads/free-icon-clown-4244707.png" width="64" height="64"/>
 </tileset>
 <tileset firstgid="14717" name="free-icon-gumball-machine-9288535" tilewidth="32" tileheight="32" tilecount="4" columns="2">
  <image source="../../../../../../../../Downloads/free-icon-gumball-machine-9288535.png" width="64" height="64"/>
 </tileset>
 <tileset firstgid="14721" name="free-icon-cotton-candy-9288542" tilewidth="32" tileheight="32" tilecount="4" columns="2">
  <image source="../../../../../../../../Downloads/free-icon-cotton-candy-9288542.png" width="64" height="64"/>
 </tileset>
 <tileset firstgid="14725" name="free-icon-food-stall-9288515" tilewidth="32" tileheight="32" tilecount="4" columns="2">
  <image source="../../../../../../../../Downloads/free-icon-food-stall-9288515.png" width="64" height="64"/>
 </tileset>
 <tileset firstgid="14729" name="free-icon-ticket-box-9288538" tilewidth="32" tileheight="32" tilecount="16" columns="4">
  <image source="../../../../../../../../Downloads/free-icon-ticket-box-9288538.png" width="128" height="128"/>
 </tileset>
 <tileset firstgid="14745" name="free-icon-kiddie-ride-5331888" tilewidth="32" tileheight="32" tilecount="4" columns="2">
  <image source="../../../../../../../../Downloads/free-icon-kiddie-ride-5331888.png" width="64" height="64"/>
 </tileset>
 <tileset firstgid="14749" name="free-icon-kiddie-ride-5727535 (1)" tilewidth="32" tileheight="32" tilecount="4" columns="2">
  <image source="../../../../../../../../Downloads/free-icon-kiddie-ride-5727535 (1).png" width="64" height="64"/>
 </tileset>
 <tileset firstgid="14753" name="free-icon-kiddie-ride-8038824" tilewidth="32" tileheight="32" tilecount="4" columns="2">
  <image source="../../../../../../../../Downloads/free-icon-kiddie-ride-8038824.png" width="64" height="64"/>
 </tileset>
 <layer id="1" name="잔디" width="30" height="30">
  <data encoding="csv">
6731,6723,6733,6728,6729,6725,6726,6731,6732,6725,6725,6733,6736,6736,6726,6723,6725,6733,6736,6726,6727,6723,6724,6733,6735,6724,6724,6735,6721,6727,
6735,6736,6722,6735,6734,6725,6735,6736,6725,6726,6730,6731,6721,6734,6731,6733,6736,6728,6735,6726,6731,6733,6733,6722,6733,6731,6725,6723,6734,6721,
6725,6729,6731,6727,6735,6725,6722,6734,6733,6735,6732,6721,6731,6732,6730,6722,6734,6733,6731,6725,6723,6729,6728,6734,6721,6725,6724,6733,6729,6729,
6734,6730,6735,6727,6730,6729,6724,6730,6728,6722,6728,6722,6723,6723,6731,6726,6731,6723,6728,6723,6733,6733,6736,6726,6731,6734,6726,6723,6726,6726,
6724,6735,6725,6728,6726,6727,6729,6729,6728,6721,6724,6727,6725,6732,6721,6731,6729,6729,6736,6727,6727,6723,6734,6734,6735,6724,6736,6731,6732,6732,
6728,6728,6734,6724,6723,6732,6723,6736,6722,6732,6725,6729,6736,6725,6729,6727,6726,6731,6729,6724,6724,6731,6735,6726,6731,6733,6736,6723,6736,6727,
6724,6721,6736,6726,6725,6721,6736,6728,6733,6733,6727,6724,6730,6731,6735,6733,6723,6721,6733,6726,6733,6729,6735,6723,6736,6731,6725,6731,6723,6728,
6731,6728,6731,6731,6725,6722,6732,6725,6735,6736,6733,6731,6726,6735,6736,6733,6735,6728,6722,6728,6726,6730,6736,6733,6723,6724,6736,6728,6727,6729,
6733,6728,6729,6735,6733,6726,6724,6725,6723,6731,6722,6724,6725,6736,6731,6723,6728,6735,6736,6726,6726,6730,6724,6730,6725,6733,6725,6733,6728,6732,
6729,6726,6725,6732,6734,6723,6730,6736,6726,6723,6734,6722,6731,6723,6726,6734,6728,6733,6736,6722,6736,6722,6729,6726,6729,6731,6732,6727,6721,6730,
6729,6721,6725,6731,6733,6727,6723,6732,6726,6734,6734,6734,6724,6722,6735,6727,6723,6723,6721,6732,6721,6726,6724,6735,6735,6730,6721,6731,6722,6732,
6724,6726,6731,6732,6735,6728,6727,6728,6725,6724,6729,6727,6724,6726,6727,6729,6736,6730,6728,6730,6728,6724,6724,6726,6727,6726,6721,6735,6722,6736,
6735,6728,6729,6733,6727,6723,6731,6733,6730,6727,6733,6733,6725,6732,6734,6734,6730,6734,6735,6731,6734,6731,6731,6731,6728,6734,6736,6726,6723,6726,
6734,6724,6729,6732,6729,6732,6733,6730,6732,6729,6724,6735,6723,6723,6721,6734,6733,6734,6721,6736,6724,6723,6732,6727,6722,6722,6732,6726,6724,6734,
6732,6726,6725,6736,6736,6736,6729,6727,6723,6721,6725,6731,6731,6723,6734,6727,6731,6728,6722,6734,6732,6728,6736,6726,6736,6725,6731,6735,6727,6729,
6725,6723,6735,6724,6736,6727,6723,6731,6734,6727,6731,6723,6723,6729,6724,6730,6731,6732,6725,6732,6734,6728,6722,6730,6735,6735,6726,6736,6721,6721,
6723,6726,6734,6730,6727,6736,6725,6721,6736,6727,6726,6726,6727,6729,6729,6735,6735,6733,6731,6724,6730,6723,6730,6726,6723,6721,6731,6732,6723,6736,
6735,6730,6725,6726,6721,6733,6733,6727,6722,6730,6723,6735,6730,6732,6721,6722,6727,6732,6733,6736,6728,6736,6727,6728,6726,6735,6730,6721,6721,6724,
6730,6722,6734,6729,6727,6734,6734,6736,6726,6729,6736,6731,6727,6724,6736,6728,6723,6733,6730,6730,6736,6727,6721,6729,6733,6731,6724,6724,6724,6734,
6722,6731,6735,6722,6731,6727,6731,6726,6728,6727,6735,6725,6726,6733,6721,6728,6722,6729,6735,6736,6721,6728,6727,6735,6727,6731,6732,6732,6730,6730,
6734,6725,6734,6729,6726,6727,6723,6726,6727,6728,6735,6726,6721,6730,6733,6733,6729,6725,6735,6730,6735,6734,6723,6723,6733,6727,6735,6728,6735,6726,
6735,6736,6722,6733,6734,6730,6731,6725,6729,6725,6732,6726,6725,6722,6729,6736,6725,6734,6725,6736,6736,6729,6729,6723,6734,6727,6732,6736,6735,6722,
6726,6724,6721,6724,6734,6728,6734,6728,6723,6730,6726,6730,6734,6721,6736,6727,6726,6735,6736,6722,6731,6727,6729,6721,6729,6727,6736,6726,6726,6734,
6736,6727,6731,6727,6721,6732,6721,6734,6730,6723,6724,6723,6726,6734,6725,6734,6725,6731,6733,6730,6724,6721,6729,6735,6727,6727,6728,6730,6734,6727,
6734,6731,6728,6733,6727,6730,6722,6724,6723,6734,6722,6724,6730,6732,6724,6723,6727,6722,6724,6732,6723,6728,6726,6735,6724,6726,6727,6721,6724,6728,
6732,6736,6732,6727,6726,6735,6724,6735,6729,6735,6730,6734,6728,6724,6726,6726,6731,6733,6731,6724,6736,6729,6726,6721,6734,6726,6731,6730,6730,6721,
6736,6735,6729,6728,6727,6736,6730,6731,6734,6727,6732,6728,6725,6722,6734,6722,6735,6721,6722,6728,6734,6736,6732,6734,6723,6728,6728,6727,6736,6724,
6725,6729,6726,6732,6734,6735,6723,6735,6733,6721,6729,6722,6730,6734,6728,6723,6722,6730,6726,6728,6734,6732,6723,6735,6732,6728,6728,6726,6723,6722,
6732,6723,6733,6729,6734,6722,6721,6735,6732,6727,6731,6724,6727,6735,6723,6729,6730,6722,6726,6732,6721,6733,6736,6729,6726,6727,6728,6728,6721,6734,
6730,6730,6730,6732,6733,6729,6722,6735,6734,6723,6726,6728,6722,6726,6727,6728,6725,6725,6725,6722,6721,6730,6727,6722,6730,6736,6731,6734,6721,6736
</data>
 </layer>
 <layer id="5" name="타일" width="30" height="30">
  <data encoding="csv">
0,0,0,0,0,0,0,0,0,0,0,0,0,0,0,0,0,0,0,0,0,0,0,0,0,0,0,0,0,0,
0,0,0,0,0,0,0,0,0,0,0,0,0,0,0,0,0,0,0,0,0,0,0,0,0,0,0,0,0,0,
0,3221228815,3342,3342,3342,3343,0,0,0,0,0,0,0,0,0,0,0,0,0,0,0,0,0,0,0,0,0,0,0,0,
0,3221228815,3342,3342,3342,3343,0,0,0,0,0,0,0,0,0,0,0,0,0,0,0,0,0,0,0,0,0,0,0,0,
0,3221228815,3342,3342,3342,3343,0,0,0,0,0,0,0,0,0,0,0,0,0,0,0,0,0,0,0,0,0,0,0,0,
0,3221228815,3342,3342,3342,1610616138,1610616079,1610616079,1610616079,1610616079,1610616079,1610616079,1610616139,0,0,0,0,0,0,0,0,0,0,0,0,0,0,0,0,0,
0,3221228815,3342,3342,3342,3342,3342,3342,3342,3342,3342,3342,3343,0,0,0,0,0,0,0,0,0,0,0,0,0,0,0,0,0,
0,3221228815,3342,3342,3342,3342,3342,3342,3342,3342,3342,3342,3343,0,0,0,0,0,0,0,0,0,0,0,0,0,0,0,0,0,
0,3221228815,3342,3342,3342,3342,3342,3342,3342,3342,3342,3342,3343,0,0,0,0,0,0,0,0,0,0,0,0,0,0,0,0,0,
0,2684357963,2684357903,2684357903,2684357903,2684357903,2684357903,2684357903,2684357962,3342,3342,3342,3343,0,0,0,0,0,0,0,0,0,0,0,0,0,0,0,0,0,
0,0,0,0,0,0,0,0,3221228815,3342,3342,3342,3343,0,0,0,0,0,0,0,0,0,0,0,0,0,0,0,0,0,
0,0,0,0,0,0,0,0,3221228815,3342,3342,3342,3343,0,0,0,0,0,0,0,0,0,0,0,0,0,0,0,0,0,
0,0,0,0,0,0,0,0,3221228815,3342,3342,3342,3343,0,0,0,0,0,0,0,0,0,0,0,0,0,0,0,0,0,
0,0,0,0,0,0,0,0,3221228815,3342,3342,3342,1610616138,1610616079,1610616079,1610616079,1610616079,1610616079,1610616139,0,0,0,0,0,0,0,0,0,0,0,
0,0,0,0,0,0,0,0,3221228815,3342,3342,3342,3342,3342,3342,3342,3342,3342,3343,0,0,0,0,0,0,0,0,0,0,0,
0,0,0,0,0,0,0,0,3221228815,3342,3342,3342,3342,3342,3342,3342,3342,3342,3343,0,0,0,0,0,0,0,0,0,0,0,
0,0,0,0,0,0,0,0,3221228815,3342,3342,3342,3342,3342,3342,3342,3342,3342,3343,0,0,0,0,0,0,0,0,0,0,0,
0,0,0,0,0,0,0,0,2684357963,2684357903,2684357903,2684357903,2684357903,2684357903,2684357962,3342,3342,3342,3343,0,0,0,0,0,0,0,0,0,0,0,
0,0,0,0,0,0,0,0,0,0,0,0,0,0,3221228815,3342,3342,3342,3343,0,0,0,0,0,0,0,0,0,0,0,
0,0,0,0,0,0,0,0,0,0,0,0,0,0,3221228815,3342,3342,3342,1610616138,1610616079,1610616079,1610616079,1610616079,1610616079,1610616079,1610616079,1610616079,1610616139,0,0,
0,0,0,0,0,0,0,0,0,0,0,0,0,0,3221228815,3342,3342,3342,3342,3342,3342,3342,3342,3342,3342,3342,3342,3343,0,0,
0,0,0,0,0,0,0,0,0,0,0,0,0,0,3221228815,3342,3342,3342,3342,3342,3342,3342,3342,3342,3342,3342,3342,3343,0,0,
0,0,0,0,0,0,0,0,0,0,0,0,0,0,3221228815,3342,3342,3342,3342,3342,3342,3342,3342,3342,3342,3342,3342,3343,0,0,
0,0,0,0,0,0,0,0,0,0,0,0,0,0,2684357963,2684357903,2684357903,2684357903,2684357903,2684357903,2684357903,2684357903,2684357903,2684357962,3342,3342,3342,3343,0,0,
0,0,0,0,0,0,0,0,0,0,0,0,0,0,0,0,0,0,0,0,0,0,0,3221228815,3342,3342,3342,3343,0,0,
0,0,0,0,0,0,0,0,0,0,0,0,0,0,0,0,0,0,0,0,0,0,0,3221228815,3342,3342,3342,3343,0,0,
0,0,0,0,0,0,0,0,0,0,0,0,0,0,0,0,0,0,0,0,0,0,0,3221228815,3342,3342,3342,3343,0,0,
0,0,0,0,0,0,0,0,0,0,0,0,0,0,0,0,0,0,0,0,0,0,0,3221228815,3342,3342,3342,3343,0,0,
0,0,0,0,0,0,0,0,0,0,0,0,0,0,0,0,0,0,0,0,0,0,0,3221228815,3342,3342,3342,3343,0,0,
0,0,0,0,0,0,0,0,0,0,0,0,0,0,0,0,0,0,0,0,0,0,0,3221228815,3342,3342,3342,3343,0,0
</data>
 </layer>
 <layer id="2" name="풀" width="30" height="30">
  <data encoding="csv">
0,0,0,0,0,0,0,0,0,0,0,0,0,0,0,0,0,0,0,0,0,0,0,0,0,0,0,0,0,0,
0,0,0,0,0,0,0,8894,0,0,0,0,0,0,0,0,0,0,0,0,0,0,0,0,0,0,0,0,0,0,
0,0,0,0,0,0,0,0,0,0,0,0,0,8894,0,0,0,0,0,0,0,0,0,0,0,0,0,0,0,0,
0,0,0,0,0,0,0,0,0,0,0,0,0,0,0,0,0,0,0,0,0,0,0,0,0,0,0,0,0,0,
0,0,0,0,0,0,0,0,8245,8246,0,0,0,0,0,0,0,0,0,0,0,0,0,0,0,0,0,0,0,8894,
0,0,0,0,0,0,0,0,8265,8266,0,0,0,0,0,0,0,0,0,0,0,8495,0,0,0,0,0,0,0,0,
0,0,0,0,0,0,0,0,0,0,0,0,8253,8254,0,0,0,0,0,8897,0,0,0,0,0,0,0,0,0,0,
0,0,0,0,0,0,0,0,0,0,0,0,8273,8274,0,0,0,0,0,0,0,0,0,0,0,0,0,0,0,0,
0,0,0,0,0,0,0,0,0,0,0,0,0,0,0,0,0,0,0,0,0,0,0,0,0,0,0,0,0,0,
0,0,0,0,0,0,0,0,0,0,0,0,0,0,0,0,0,0,0,0,0,0,0,0,0,0,0,0,0,0,
0,0,0,0,0,0,0,0,0,0,0,0,0,0,0,0,0,0,0,0,0,0,0,0,0,0,0,0,0,0,
0,0,0,0,0,0,0,0,0,0,0,0,0,0,0,0,0,0,0,0,0,0,0,0,0,0,0,0,0,0,
0,0,0,0,0,0,0,0,0,0,0,0,0,0,0,0,0,0,0,0,0,0,0,0,0,0,0,0,0,0,
0,0,0,0,0,0,0,0,0,0,0,0,0,0,0,0,0,0,0,8897,0,0,0,0,0,0,0,0,0,0,
0,0,0,0,0,0,0,0,0,0,0,0,0,0,0,0,0,0,0,0,0,0,0,0,0,0,0,14725,14726,0,
0,0,0,0,0,0,0,0,0,0,0,0,0,0,0,0,0,0,0,0,0,0,0,0,0,0,0,14727,14728,0,
0,0,0,0,0,0,0,0,0,0,0,0,0,0,0,0,0,0,0,0,0,0,0,0,0,0,0,0,0,0,
0,0,0,0,0,0,0,0,0,0,0,0,0,0,0,0,0,0,0,0,0,0,0,0,0,0,0,0,8897,0,
0,0,0,0,0,0,0,0,0,0,0,0,0,0,0,0,0,0,0,0,0,0,0,0,0,0,0,0,0,0,
0,0,0,0,8897,0,0,0,0,0,0,0,0,0,0,0,0,0,0,0,0,0,0,0,0,0,0,0,0,0,
0,0,0,0,0,0,0,0,0,0,0,0,0,0,0,0,0,0,0,0,0,0,0,0,0,0,0,0,0,0,
0,0,0,0,0,0,0,0,0,0,0,0,0,0,0,0,0,0,0,0,0,0,0,0,0,0,0,0,0,0,
0,0,0,0,0,0,0,0,0,0,0,0,0,0,0,0,0,0,0,0,0,0,0,0,0,0,0,0,0,0,
0,0,0,0,0,0,0,0,0,0,0,0,0,0,0,0,0,0,0,0,0,0,0,0,0,0,0,0,0,0,
0,8897,0,0,0,0,0,0,0,0,0,0,8897,0,0,0,0,0,0,0,0,0,0,0,0,0,0,0,0,0,
0,0,0,0,0,0,0,0,0,0,0,0,0,0,0,0,0,0,0,0,0,0,0,0,0,0,0,0,0,0,
0,0,0,0,0,0,0,8897,0,0,0,0,0,0,0,0,0,0,0,0,0,0,0,0,0,0,0,0,0,0,
0,0,0,0,0,0,0,0,0,0,0,0,0,0,0,0,0,0,8897,0,0,0,0,0,0,0,0,0,0,0,
0,0,0,0,0,0,0,0,0,0,0,0,0,0,0,0,0,0,0,0,0,0,0,0,0,0,0,0,0,0,
0,0,0,0,0,0,0,0,0,0,0,0,0,0,0,0,0,0,0,0,0,0,0,0,0,0,0,0,0,0
</data>
 </layer>
 <layer id="7" name="나무" width="30" height="30">
  <data encoding="csv">
0,0,0,0,0,0,0,0,0,8635,8636,8637,0,0,0,0,0,0,0,0,0,0,0,0,0,0,0,0,0,0,
0,0,0,0,0,0,0,0,0,8655,8656,8657,0,0,0,0,0,0,0,0,0,0,0,0,0,0,0,0,0,0,
0,0,0,0,0,0,0,0,0,8675,8676,8677,0,0,0,0,0,0,0,0,0,0,0,0,0,0,0,0,0,0,
0,0,0,0,0,0,0,0,0,0,0,0,0,0,0,0,0,0,0,0,0,0,0,0,0,0,0,0,0,0,
0,0,0,0,0,0,0,0,0,0,0,0,0,0,0,0,0,0,0,0,0,0,0,0,0,0,0,0,0,0,
0,0,0,0,0,0,0,0,0,0,0,0,0,0,0,0,0,0,0,0,0,0,0,0,0,0,8633,8634,0,0,
0,0,0,0,0,0,0,0,0,0,0,0,0,0,0,0,0,0,0,0,0,0,0,0,0,0,8653,8654,0,0,
0,0,0,0,0,0,0,0,0,0,0,0,0,0,0,0,0,0,0,0,0,0,0,0,0,0,8673,8674,0,0,
0,0,0,0,0,0,0,0,0,0,0,0,0,0,0,0,0,0,0,0,0,0,0,0,0,0,0,0,0,0,
0,0,0,0,0,0,0,0,0,0,0,0,0,0,0,0,0,0,0,0,0,0,0,0,0,0,0,0,0,0,
0,0,0,0,0,0,0,0,0,0,0,0,0,0,0,0,0,0,0,0,0,0,0,0,0,0,0,0,0,0,
0,0,0,0,0,0,0,0,0,0,0,0,0,0,0,0,0,0,0,0,0,0,0,0,0,0,0,0,0,0,
0,0,0,0,0,0,0,0,0,0,0,0,0,0,0,0,0,0,0,0,0,0,0,0,0,0,0,0,0,0,
0,0,0,0,0,0,0,0,0,0,0,0,0,0,0,0,0,0,0,0,0,0,0,0,0,0,0,0,0,0,
0,0,0,0,0,0,0,0,0,0,0,0,0,0,0,0,0,0,0,0,0,0,0,0,0,0,0,0,0,0,
0,0,0,0,0,0,0,0,0,0,0,0,0,0,0,0,0,0,0,0,0,0,0,0,0,0,0,0,0,0,
0,0,0,0,0,0,0,0,0,0,0,0,0,0,0,0,0,0,0,0,0,0,0,0,0,0,0,0,0,0,
0,0,0,0,0,0,0,0,0,0,0,0,0,0,0,0,0,0,0,0,0,0,0,0,0,0,0,0,0,0,
0,0,0,0,0,0,0,0,0,0,0,0,0,0,0,0,0,0,0,0,0,0,0,0,0,0,0,0,0,0,
0,0,0,0,0,0,0,0,0,0,0,0,0,0,0,0,0,0,0,0,0,0,0,0,0,0,0,0,0,0,
0,8564,8565,8566,0,0,0,0,0,0,0,0,0,0,0,0,0,0,0,0,0,0,0,0,0,0,0,0,0,0,
0,8584,8585,8586,0,0,0,0,0,0,0,0,0,0,0,0,0,0,0,0,0,0,0,0,0,0,0,0,0,0,
0,8604,8605,8606,0,0,0,0,0,0,0,0,0,0,0,0,0,0,0,0,0,0,0,0,0,0,0,0,0,0,
0,0,0,0,0,0,0,0,0,0,0,0,0,0,0,0,0,0,0,0,0,0,0,0,0,0,0,0,0,0,
0,0,0,0,0,0,0,0,0,0,0,0,0,0,0,0,0,0,0,0,0,0,0,0,0,0,0,0,0,0,
0,0,0,0,0,0,0,0,0,0,0,0,0,0,0,0,0,0,0,0,0,0,0,0,0,0,0,0,0,0,
0,0,0,0,0,0,0,0,0,0,0,0,0,0,0,0,0,0,0,0,8570,8571,0,0,0,0,0,0,0,0,
0,0,0,0,0,0,0,0,0,0,0,0,0,0,0,0,0,0,0,0,8590,8591,0,0,0,0,0,0,0,0,
0,0,0,0,0,0,0,0,0,0,0,0,0,0,0,0,0,0,0,0,8610,8611,0,0,0,0,0,0,0,0,
0,0,0,0,0,0,0,0,0,0,0,0,0,0,0,0,0,0,0,0,0,0,0,0,0,0,0,0,0,0
</data>
 </layer>
 <layer id="3" name="장식1" width="30" height="30">
  <data encoding="csv">
0,9396,9397,9398,9399,9400,0,0,0,0,0,0,0,0,0,0,0,0,0,0,0,14669,14670,14671,14672,14693,14694,0,0,0,
0,9436,9437,9438,9439,9440,0,0,0,0,0,0,0,0,0,14617,0,0,14693,14694,0,14673,14674,14675,14676,14695,14696,0,0,0,
0,9476,9477,9478,9479,9480,12363,12364,0,0,0,0,0,0,14617,0,0,0,14695,14696,0,14677,14678,14679,14680,0,0,0,0,0,
13096,13096,0,0,0,0,12403,12404,0,0,0,0,0,0,0,0,0,0,0,0,0,14681,14682,14683,14684,0,0,0,0,0,
13096,13096,0,0,0,0,12443,12444,0,0,12363,12364,0,0,14617,14618,14619,14620,0,0,0,0,0,0,0,0,0,0,0,0,
12363,12364,0,0,0,0,0,0,0,0,12403,12404,0,0,14621,14622,14623,14624,0,0,0,0,0,0,0,0,0,0,0,0,
12403,12404,0,0,0,0,0,0,0,0,12443,12444,0,0,14625,14626,14627,14628,0,0,0,0,0,0,0,0,0,0,0,0,
12443,12444,0,0,0,0,0,0,0,0,0,0,12363,12364,14629,14630,14631,14632,0,0,0,0,0,0,0,0,0,0,0,0,
0,0,0,0,0,0,0,0,0,9212,9212,9213,12403,12404,0,0,0,14717,14718,0,0,0,0,0,0,14601,14602,14603,14604,0,
0,12363,12364,8245,8246,0,0,0,0,0,0,0,12443,12444,0,0,0,14719,14720,0,0,0,0,0,0,14605,14606,14607,14608,0,
0,12403,12404,8265,8266,0,12363,12364,0,0,0,0,0,12363,12364,0,0,0,0,0,14745,14746,0,0,0,14609,14610,14611,14612,0,
0,12443,12444,0,0,0,12403,12404,0,0,0,0,0,12403,12404,0,13096,13096,0,0,14747,14748,0,0,0,14613,14614,14615,14616,0,
0,0,14653,14654,14655,14656,12443,12444,0,0,0,0,0,12443,12444,8245,8246,12363,12364,0,0,0,0,0,0,0,0,0,0,0,
0,0,14657,14658,14659,14660,0,12363,12364,0,0,0,0,0,0,8265,8266,12403,12404,0,0,0,0,0,0,0,0,0,0,0,
0,0,14661,14662,14663,14664,0,12403,12404,0,0,0,0,0,0,0,0,12443,12444,13096,12247,0,12247,0,0,12250,0,0,0,0,
0,0,14665,14666,14667,14668,0,12443,12444,0,0,0,0,0,0,0,0,0,13096,12363,12364,0,0,0,0,0,0,0,0,0,
0,0,0,0,0,0,0,8253,8254,12363,12364,0,13096,13096,0,0,0,0,13096,12403,12404,0,0,0,0,0,0,0,0,0,
0,14753,14754,0,0,0,0,8273,8274,12403,12404,0,13096,13096,0,0,0,0,0,12443,12444,0,13096,14729,14730,14731,14732,0,0,0,
0,14755,14756,0,0,0,0,0,0,12443,12444,14649,14650,12363,12364,0,0,0,0,0,0,8253,8254,14733,14734,14735,14736,0,0,0,
0,0,0,0,0,0,0,0,0,0,0,14651,14652,12403,12404,0,0,0,0,0,0,8273,8274,14737,14738,14739,14740,0,0,0,
0,0,0,0,0,0,0,0,14697,14698,14699,14700,0,12443,12444,0,0,0,0,0,0,0,0,14741,14742,14743,14744,0,12363,12364,
0,0,0,0,0,0,0,0,14701,14702,14703,14704,0,13096,13096,0,0,0,0,0,0,0,0,0,0,0,0,0,12403,12404,
0,0,0,0,0,14721,14722,0,14705,14706,14707,14708,0,0,0,0,0,0,0,0,0,0,0,0,0,0,0,0,12443,12444,
0,0,0,0,0,14723,14724,0,14709,14710,14711,14712,0,0,12363,12364,0,0,0,0,8245,8246,12363,12364,12410,0,12410,0,0,0,
0,0,0,0,0,0,0,0,0,0,0,0,0,0,12403,12404,0,0,0,0,8265,8266,12403,12404,12450,0,12450,0,0,0,
0,0,14633,14634,14635,14636,0,0,0,0,0,0,0,0,12443,12444,0,0,0,0,0,0,12443,12444,13204,13205,13206,0,12363,12364,
0,0,14637,14638,14639,14640,0,0,0,0,0,0,14749,14750,0,0,0,0,0,0,0,0,13096,13096,13244,13245,13246,0,12403,12404,
0,0,14641,14642,14643,14644,0,0,0,0,0,0,14751,14752,0,0,0,0,0,0,0,0,13096,13096,13284,13285,13286,0,12443,12444,
0,0,14645,14646,14647,14648,0,0,0,0,0,0,0,0,0,0,0,0,0,0,0,0,0,0,13324,13325,13326,0,0,0,
0,0,0,0,0,0,0,0,0,0,0,0,0,0,0,0,0,0,0,0,0,0,0,0,13364,13365,13366,0,0,0
</data>
 </layer>
 <layer id="4" name="장식2" width="30" height="30">
  <data encoding="csv">
0,0,0,0,0,0,0,0,0,0,0,0,0,0,0,0,0,0,0,14689,14690,0,0,0,0,0,0,0,0,0,
0,0,12407,0,12407,0,0,0,0,0,0,0,0,0,0,0,0,0,0,14691,14692,0,0,0,0,0,0,0,0,0,
12685,12686,12447,0,12447,0,0,0,0,0,0,0,0,0,0,0,0,0,0,0,0,0,0,0,0,0,0,0,0,0,
0,0,0,12728,12686,12687,12688,0,0,0,0,0,0,0,0,0,0,0,0,0,0,0,0,0,14685,14686,0,0,0,0,
0,12685,12686,12687,12726,12727,12728,0,0,0,0,0,0,0,0,0,0,0,0,0,0,0,0,0,14687,14688,0,0,0,0,
12685,12725,12726,12727,0,0,0,0,12686,12686,12487,0,12727,0,0,0,0,0,0,0,0,0,0,0,0,0,0,0,0,0,
0,0,0,0,0,0,0,12686,12687,12726,0,0,0,0,0,0,0,0,0,0,0,0,0,0,0,0,0,0,0,0,
0,0,0,0,12686,12686,12687,12726,12727,0,0,0,0,0,0,14713,14714,0,0,0,0,0,0,0,0,0,0,0,0,0,
0,12685,12685,12686,12687,12726,12727,0,0,0,12686,12687,12688,0,0,14715,14716,0,0,0,0,0,0,0,0,0,0,0,0,0,
0,0,12725,12726,12727,0,0,12685,12686,12687,12726,12727,12728,0,0,0,0,0,0,0,0,0,0,0,0,0,0,0,0,0,
0,0,0,0,0,0,0,12725,12726,12727,0,0,0,0,0,0,0,0,0,0,0,0,0,0,0,0,0,0,0,0,
0,0,0,0,0,0,0,0,0,0,0,12694,12695,12696,0,0,0,0,0,0,0,0,0,0,0,0,0,0,0,0,
0,0,0,0,0,0,0,0,12693,12694,12695,12734,12735,12736,0,0,0,0,0,0,0,0,0,0,0,0,0,0,0,0,
0,0,0,0,0,0,0,0,12733,12734,12735,0,0,12728,0,12686,12687,12688,0,0,12247,12248,12249,12250,0,0,0,0,0,0,
0,0,0,0,0,0,0,0,12773,12774,12775,0,0,12686,12687,12726,12727,12728,0,0,12287,12288,12289,12290,0,0,0,0,0,0,
0,0,0,0,0,0,0,0,0,0,0,12686,12687,12726,12727,0,0,0,0,0,12327,12328,12329,12330,0,0,0,0,0,0,
0,0,0,0,0,0,0,0,0,0,12725,12726,12727,0,0,0,0,12694,12695,12696,0,0,0,0,0,0,0,0,0,0,
0,0,0,0,0,0,0,0,0,0,0,0,0,0,12693,12694,12695,12734,12735,12736,0,0,0,0,0,0,12363,12364,0,0,
0,0,0,0,0,0,0,0,0,0,0,0,0,0,12733,12734,12735,0,0,0,0,0,0,0,12686,12687,12403,12404,0,0,
0,0,0,0,0,0,0,0,0,0,0,0,0,0,12773,12774,12775,0,0,0,0,0,12686,12687,12726,12727,12443,12444,0,0,
0,0,0,0,0,0,0,0,0,0,0,0,0,0,0,0,0,0,0,0,12686,12687,12726,12727,0,0,0,0,0,0,
0,0,0,0,0,0,0,0,0,0,0,0,0,0,0,0,0,0,12686,12687,12726,12727,0,0,0,0,12686,12687,12688,0,
0,0,0,0,0,0,0,0,0,0,0,0,0,0,0,12685,12686,12687,12726,12727,0,0,0,12685,12686,12687,12726,12727,12728,0,
0,0,0,0,0,0,0,0,0,0,0,0,0,0,0,12725,12726,12727,0,0,0,0,0,12725,12726,12727,0,0,0,0,
0,0,0,0,0,0,0,0,0,0,0,0,0,0,0,0,0,0,0,0,0,0,0,0,0,0,0,0,0,0,
0,0,0,0,0,0,0,0,0,0,0,0,0,0,0,0,0,0,0,0,0,0,0,0,0,0,0,0,0,0,
0,0,0,0,0,0,0,0,0,0,0,0,0,0,0,0,0,0,0,0,0,0,0,0,0,0,0,0,0,0,
0,0,0,0,0,0,0,0,0,0,0,0,0,0,0,0,0,0,0,0,0,0,0,0,0,0,0,0,0,0,
0,0,0,0,0,0,0,0,0,0,0,0,0,0,0,0,0,0,0,0,0,0,0,0,0,0,0,0,0,0,
0,0,0,0,0,0,0,0,0,0,0,0,0,0,0,0,0,0,0,0,0,0,0,0,0,0,0,0,0,0
</data>
 </layer>
 <layer id="6" name="장식3" width="30" height="30">
  <data encoding="csv">
0,0,0,0,0,0,0,0,0,0,0,0,0,0,0,0,0,0,0,0,0,0,0,0,0,0,0,0,0,0,
0,0,0,0,0,0,0,0,0,0,0,0,0,0,0,0,0,0,0,0,0,0,0,0,0,0,0,0,0,0,
0,0,0,0,0,0,0,0,0,0,0,0,0,0,0,0,0,0,0,0,0,0,0,0,0,0,0,0,0,0,
0,0,0,0,0,0,0,0,0,0,0,0,0,0,0,0,0,0,0,0,0,0,0,0,0,0,0,0,0,0,
0,0,0,0,0,0,0,0,0,0,0,0,0,0,0,0,0,0,0,0,0,0,0,0,0,0,0,0,0,0,
0,0,0,0,0,0,0,0,0,0,0,0,0,0,0,0,0,0,0,0,0,0,0,0,0,0,0,0,0,0,
0,0,0,0,0,0,0,0,0,0,0,0,0,0,0,0,0,0,0,0,0,0,0,0,0,0,0,0,0,0,
0,0,0,0,0,0,0,0,0,0,0,0,0,0,0,0,0,0,0,0,0,0,0,0,0,0,0,0,0,0,
0,0,0,0,0,0,0,0,0,0,0,0,0,0,0,0,0,0,0,0,0,0,0,0,0,0,0,0,0,0,
0,0,0,0,0,0,0,0,0,0,0,0,0,0,0,0,0,0,0,0,0,0,0,0,0,0,0,0,0,0,
0,0,0,0,0,0,0,0,0,0,0,0,0,0,0,0,0,0,0,0,0,0,0,0,0,0,0,0,0,0,
0,0,0,0,0,0,0,0,0,0,0,0,0,0,0,0,0,0,0,0,0,0,0,0,0,0,0,0,0,0,
0,0,0,0,0,0,0,0,0,0,0,0,0,0,0,0,0,0,0,0,0,0,0,0,0,0,0,0,0,0,
0,0,0,0,0,0,0,0,0,0,0,0,0,0,0,0,0,0,0,0,0,0,0,0,0,0,0,0,0,0,
0,0,0,0,0,0,0,0,0,0,0,0,0,0,0,0,0,0,0,0,0,0,0,0,0,0,0,0,0,0,
0,0,0,0,0,0,0,0,0,0,0,0,0,0,0,0,0,0,0,0,0,0,0,0,0,0,0,0,0,0,
0,0,0,0,0,0,0,0,0,0,0,0,0,0,0,0,0,0,0,0,0,0,0,0,0,0,0,0,0,0,
0,0,0,0,0,0,0,0,0,0,0,0,0,0,0,0,0,0,0,0,0,0,0,0,0,0,0,0,0,0,
0,0,0,0,0,0,0,0,0,0,0,0,0,0,0,0,0,0,0,0,0,0,0,0,0,0,12607,0,0,0,
0,0,0,0,0,0,0,0,0,0,0,0,0,0,0,0,0,0,0,0,0,0,0,0,0,0,0,0,0,0,
0,0,0,0,0,0,0,0,0,0,0,0,0,0,0,0,0,0,0,0,0,0,0,0,0,0,0,0,0,0,
0,0,0,0,0,0,0,0,0,0,0,0,0,0,0,0,0,0,0,0,0,0,0,0,0,0,0,0,0,0,
0,0,0,0,0,0,0,0,0,0,0,0,0,0,0,0,0,0,0,0,0,0,0,0,0,0,0,0,0,0,
0,0,0,0,0,0,0,0,0,0,0,0,0,0,0,0,0,0,0,0,0,0,0,0,0,0,0,0,0,0,
0,0,0,0,0,0,0,0,0,0,0,0,0,0,0,0,0,0,0,0,0,0,0,0,0,0,0,0,0,0,
0,0,0,0,0,0,0,0,0,0,0,0,0,0,0,0,0,0,0,0,0,0,0,0,0,0,0,0,0,0,
0,0,0,0,0,0,0,0,0,0,0,0,0,0,0,0,0,0,0,0,0,0,0,0,0,0,0,0,0,0,
0,0,0,0,0,0,0,0,0,0,0,0,0,0,0,0,0,0,0,0,0,0,0,0,0,0,0,0,0,0,
0,0,0,0,0,0,0,0,0,0,0,0,0,0,0,0,0,0,0,0,0,0,0,0,0,0,0,0,0,0,
0,0,0,0,0,0,0,0,0,0,0,0,0,0,0,0,0,0,0,0,0,0,0,0,0,0,0,0,0,0
</data>
 </layer>
</map>
