<?xml version="1.0" encoding="UTF-8"?>
<map version="1.10" tiledversion="1.10.2" orientation="orthogonal" renderorder="right-down" width="30" height="30" tilewidth="32" tileheight="32" infinite="0" nextlayerid="6" nextobjectid="6">
 <tileset firstgid="1" name="Floor2" tilewidth="32" tileheight="32" tilecount="8160" columns="60">
  <image source="../../../../../../../Downloads/Floor2.png" width="1920" height="4352"/>
 </tileset>
 <tileset firstgid="8161" name="Wall" tilewidth="32" tileheight="32" tilecount="8025" columns="25">
  <image source="../../../../../../../Downloads/Wall.png" width="800" height="10272"/>
 </tileset>
 <tileset firstgid="16186" name="—Pngtree—green chalkboard background horizontal version_6028660" tilewidth="32" tileheight="32" tilecount="0" columns="37">
  <image source="../../../../../../../Downloads/—Pngtree—green chalkboard background horizontal version_6028660.png" width="1200" height="1200"/>
 </tileset>
 <tileset firstgid="17032" name="free-icon-table-8242725" tilewidth="32" tileheight="32" tilecount="4" columns="2">
  <image source="../../../../../../../Downloads/free-icon-table-8242725.png" width="64" height="64"/>
 </tileset>
 <tileset firstgid="17036" name="free-icon-chair-9191726" tilewidth="32" tileheight="32" tilecount="4" columns="2">
  <image source="../../../../../../../Downloads/free-icon-chair-9191726.png" width="64" height="64"/>
 </tileset>
 <tileset firstgid="17040" name="free-icon-bedside-table-13429322 (1)" tilewidth="32" tileheight="32" tilecount="16" columns="4">
  <image source="../../../../../../../Downloads/free-icon-bedside-table-13429322 (1).png" width="128" height="128"/>
 </tileset>
 <tileset firstgid="17056" source="../images/KakaoTalk_20240605_175919904.tsx"/>
 <tileset firstgid="18425" source="book_dark.tsx"/>
 <tileset firstgid="18426" source="book_fire.tsx"/>
 <tileset firstgid="18427" source="book_ice.tsx"/>
 <tileset firstgid="18428" source="book_light.tsx"/>
 <layer id="1" name="바닥" width="30" height="30">
  <data encoding="csv">
1331,1331,1331,1331,1331,1331,1331,1331,1331,1331,1331,1331,1331,1331,1331,1331,1331,1331,1331,1331,1331,1331,1331,1331,1331,1331,1331,1331,1331,1331,
1331,1331,1331,1331,1331,1331,1331,1331,1331,1331,1331,1331,1331,1331,1331,1331,1331,1331,1331,1331,1331,1331,1331,1331,1331,1331,1331,1331,1331,1331,
1331,1331,1331,1331,1331,1331,1331,1331,1331,1331,1331,1331,1331,1331,1331,1331,1331,1331,1331,1331,1331,1331,1331,1331,1331,1331,1331,1331,1331,1331,
1331,1331,1331,1331,1331,1331,1331,1331,1331,1331,1331,1331,1331,1331,1331,1331,1331,1331,1331,1331,1331,1331,1331,1331,1331,1331,1331,1331,1331,1331,
1331,1331,1331,1331,1331,1331,1331,1331,1331,1331,1331,1331,1331,1331,1331,1331,1331,1331,1331,1331,1331,1331,1331,1331,1331,1331,1331,1331,1331,1331,
1331,1331,1331,1331,1331,1331,1331,1331,1331,1331,1331,1331,1331,1331,1331,1331,1331,1331,1331,1331,1331,1331,1331,1331,1331,1331,1331,1331,1331,1331,
1803,1802,1802,1802,1741,1741,1741,1742,1803,1743,1802,1743,1801,1801,1741,1801,1803,1801,1743,1801,1741,1743,1742,1742,1743,1741,1741,1742,1803,1741,
1803,1802,1803,1741,1742,1743,1742,1803,1743,1802,1743,1743,1802,1742,1743,1742,1802,1801,1801,1743,1743,1742,1742,1803,1743,1741,1803,1803,1743,1742,
1801,1802,1803,1741,1801,1743,1801,1802,1741,1803,1741,1743,1741,1803,1741,1801,1742,1801,1802,1803,1743,1801,1743,1743,1803,1741,1801,1801,1802,1802,
1741,1803,1802,1743,1801,1743,1741,1742,1802,1741,1801,1743,1802,1801,1802,1802,1742,1742,1743,1802,1742,1743,1741,1741,1802,1802,1801,1742,1803,1742,
1801,1743,1801,1803,1803,1801,1743,1741,1743,1801,1741,1741,1743,1801,1742,1801,1801,1802,1743,1741,1741,1742,1742,1741,1801,1802,1741,1803,1741,1743,
1802,1803,1741,1742,1802,1742,1743,1742,1741,1741,1743,1803,1741,1743,1802,1801,1743,1803,1742,1803,1801,1742,1743,1742,1741,1802,1803,1802,1802,1802,
1741,1743,1742,1801,1742,1802,1802,1743,1742,1801,1741,1802,1742,1741,1803,1743,1802,1741,1742,1742,1743,1742,1802,1803,1802,1801,1741,1802,1742,1803,
1742,1742,1743,1803,1742,1801,1803,1803,1803,1801,1803,1802,1802,1803,1742,1802,1741,1742,1741,1803,1801,1802,1741,1743,1742,1802,1803,1741,1801,1801,
1802,1742,1802,1742,1742,1741,1742,1741,1741,1741,1741,1742,1801,1803,1742,1802,1741,1803,1741,1741,1801,1801,1801,1801,1743,1742,1742,1742,1803,1802,
1803,1741,1742,1742,1743,1741,1741,1801,1803,1801,1802,1742,1802,1742,1801,1742,1743,1801,1803,1742,1742,1801,1802,1741,1743,1743,1803,1742,1741,1741,
1741,1743,1803,1743,1742,1801,1742,1802,1741,1742,1803,1743,1741,1801,1743,1743,1802,1803,1801,1802,1803,1743,1803,1801,1742,1742,1802,1802,1803,1743,
1741,1802,1741,1741,1802,1801,1801,1742,1803,1742,1742,1742,1801,1802,1741,1741,1742,1743,1803,1741,1801,1801,1743,1742,1801,1802,1742,1803,1801,1743,
1743,1742,1801,1742,1802,1803,1803,1742,1743,1803,1741,1803,1743,1742,1801,1803,1802,1743,1801,1801,1741,1801,1741,1801,1742,1743,1801,1802,1741,1801,
1741,1803,1743,1803,1743,1801,1742,1743,1743,1803,1743,1743,1741,1742,1743,1743,1801,1741,1801,1742,1803,1802,1801,1803,1802,1802,1741,1802,1743,1741,
1743,1743,1741,1741,1742,1741,1742,1801,1741,1802,1741,1742,1741,1741,1802,1802,1741,1741,1801,1741,1803,1801,1742,1742,1743,1801,1743,1743,1742,1802,
1743,1743,1741,1743,1742,1742,1802,1741,1741,1802,1741,1742,1801,1742,1742,1741,1743,1742,1803,1742,1743,1741,1802,1743,1801,1802,1803,1743,1802,1742,
1802,1803,1741,1742,1742,1743,1742,1741,1743,1801,1802,1802,1741,1801,1801,1801,1801,1803,1802,1803,1803,1802,1802,1742,1803,1743,1803,1801,1802,1741,
1803,1743,1803,1802,1802,1801,1803,1742,1741,1741,1743,1741,1801,1802,1801,1802,1803,1741,1742,1801,1801,1802,1741,1742,1742,1801,1743,1801,1802,1801,
1742,1803,1803,1743,1802,1803,1803,1742,1802,1802,1802,1742,1802,1742,1741,1801,1743,1741,1743,1743,1801,1743,1802,1743,1801,1802,1803,1741,1802,1742,
1741,1803,1802,1743,1741,1803,1801,1802,1802,1803,1743,1802,1802,1742,1802,1741,1743,1802,1743,1741,1803,1741,1741,1803,1802,1742,1802,1741,1742,1802,
1803,1743,1743,1802,1801,1801,1741,1803,1743,1801,1741,1742,1743,1743,1742,1802,1802,1742,1743,1801,1803,1801,1743,1742,1742,1741,1743,1742,1741,1742,
1742,1803,1802,1801,1743,1802,1742,1743,1742,1801,1742,1741,1742,1801,1801,1741,1802,1743,1803,1741,1802,1742,1802,1803,1801,1741,1801,1802,1802,1743,
1803,1743,1741,1742,1802,1803,1803,1802,1801,1743,1802,1741,1742,1743,1743,1743,1802,1743,1802,1743,1803,1803,1802,1803,1741,1742,1801,1803,1801,1801,
1802,1743,1742,1741,1803,1743,1803,1802,1802,1803,1803,1802,1742,1802,1742,1801,1803,1802,1742,1803,1801,1742,1743,1801,1742,1742,1801,1741,1743,1742
</data>
 </layer>
 <layer id="4" name="벽" width="30" height="30">
  <data encoding="csv">
0,0,17692,17693,17694,17695,17696,17697,17698,17699,17700,17701,17702,17703,17704,17705,17706,17707,17708,17709,17710,17711,17712,17713,17714,17715,17389,17389,17389,13267,
0,0,17729,17730,17731,17732,17733,17734,17735,17736,17737,17738,17739,17740,17741,17742,17743,17744,17745,17746,17747,17748,17749,17750,17751,17752,17389,17389,17389,13267,
0,0,17766,17767,17768,17769,17770,17771,17772,17773,17774,17775,17776,17777,17778,17779,17780,17781,17782,17783,17784,17785,17786,17787,17788,17789,17389,17389,17389,13267,
0,0,17803,17804,17805,17806,17807,17808,17809,17810,17811,17812,17813,17814,17815,17816,17817,17818,17819,17820,17821,17822,17823,17824,17825,17826,17389,17389,17389,13267,
0,0,17840,17841,17842,17843,17844,17845,17846,17847,17848,17849,17850,17851,17852,17853,17854,17855,17856,17857,17858,17859,17860,17861,17862,17863,17389,17389,17389,13267,
0,0,17877,17878,17879,17880,17881,17882,17883,17884,17885,17886,17887,17888,17889,17890,17891,17892,17893,17894,17895,17896,17897,17898,17899,17900,17389,17389,17389,13267,
0,0,0,0,0,0,0,0,0,0,0,0,0,0,0,0,0,0,0,0,0,0,0,0,0,0,0,0,0,13267,
0,0,0,0,0,0,0,0,0,0,0,0,0,0,0,0,0,0,0,0,0,0,0,0,0,0,0,0,0,13267,
0,0,0,0,0,0,0,0,0,0,0,0,0,0,0,0,0,0,0,0,0,0,0,0,0,0,0,0,0,13267,
0,0,0,0,0,0,0,0,0,0,0,0,0,0,0,0,0,0,0,0,0,0,0,0,0,0,0,0,0,13267,
0,0,0,0,0,0,0,0,0,0,0,0,0,0,0,0,0,0,0,0,0,0,0,0,0,0,0,0,0,13267,
0,0,0,0,0,0,0,0,0,0,0,0,0,0,0,0,0,0,0,0,0,0,0,0,0,0,0,0,0,13267,
0,0,0,0,0,0,0,0,0,0,0,0,0,0,0,0,0,0,0,0,0,0,0,0,0,0,0,0,0,13267,
0,0,0,0,0,0,0,0,0,0,0,0,0,0,0,0,0,0,0,0,0,0,0,0,0,0,0,0,0,13267,
0,0,0,0,0,0,0,0,0,0,0,0,0,0,0,0,0,0,0,0,0,0,0,0,0,0,0,0,0,13267,
0,0,0,0,0,0,0,0,0,0,0,0,0,0,0,0,0,0,0,0,0,0,0,0,0,0,0,0,0,13267,
0,0,0,0,0,0,0,0,0,0,0,0,0,0,0,0,0,0,0,0,0,0,0,0,0,0,0,0,0,13267,
0,0,0,0,0,0,0,0,0,0,0,0,0,0,0,0,0,0,0,0,0,0,0,0,0,0,0,0,0,13267,
0,0,0,0,0,0,0,0,0,0,0,0,0,0,0,0,0,0,0,0,0,0,0,0,0,0,0,0,0,13267,
0,0,0,0,0,0,0,0,0,0,0,0,0,0,0,0,0,0,0,0,0,0,0,0,0,0,0,0,0,13267,
0,0,0,0,0,0,0,0,0,0,0,0,0,0,0,0,0,0,0,0,0,0,0,0,0,0,0,0,0,13267,
0,0,0,0,0,0,0,0,0,0,0,0,0,0,0,0,0,0,0,0,0,0,0,0,0,0,0,0,0,13267,
0,0,0,0,0,0,0,0,0,0,0,0,0,0,0,0,0,0,0,0,0,0,0,0,0,0,0,0,0,13267,
0,0,0,0,0,0,0,0,0,0,0,0,0,0,0,0,0,0,0,0,0,0,0,0,0,0,0,0,0,13267,
0,0,0,0,0,0,0,0,0,0,0,0,0,0,0,0,0,0,0,0,0,0,0,0,0,0,0,0,0,13267,
0,0,0,0,0,0,0,0,0,0,0,0,0,0,0,0,0,0,0,0,0,0,0,0,0,0,0,0,0,13267,
0,0,0,0,0,0,0,0,0,0,0,0,0,0,0,0,0,0,0,0,0,0,0,0,0,0,0,0,0,13266,
0,0,0,0,0,0,0,0,0,0,0,0,0,0,0,0,0,0,0,0,0,0,0,0,0,0,0,0,0,13266,
13368,13363,13363,13363,13363,13363,13363,13363,13363,13277,13277,13363,13363,13363,13363,13363,13363,13363,13363,13277,13277,13363,13363,13450,13451,13452,13452,13453,13363,13366,
13393,13388,13388,13388,13388,13388,13388,13388,13388,13302,13302,13388,13388,13388,13388,13388,13388,13388,13388,13302,13302,13388,13388,13475,13476,13477,13477,13478,13388,13394
</data>
 </layer>
 <layer id="2" name="가구1" width="30" height="30">
  <data encoding="csv">
0,0,0,0,0,0,0,0,0,0,0,0,0,0,0,0,0,0,0,0,0,0,0,0,17712,17713,17714,17715,0,0,
0,0,0,0,0,0,0,0,0,0,0,0,0,0,0,0,0,0,0,0,0,0,0,0,17749,17750,17751,17752,0,0,
0,0,0,0,0,0,0,0,0,0,0,0,0,0,0,0,0,0,0,0,0,0,0,0,17786,17787,17788,17789,0,0,
0,0,0,0,0,0,0,0,0,0,0,0,0,0,0,0,0,0,0,0,0,0,0,0,17823,17824,17825,17826,0,0,
0,0,0,0,0,0,0,0,0,0,0,0,0,0,0,0,0,0,0,0,0,0,0,0,17860,17861,17862,17863,0,0,
0,0,0,0,0,0,0,0,0,0,0,0,0,0,0,0,0,0,0,0,0,0,0,0,17897,17898,17899,17900,0,0,
0,0,1270,1271,1271,1271,1271,1271,1271,1271,1271,1271,1271,1271,1271,1271,1271,1271,1271,1271,1271,1271,1271,1271,1271,1271,1271,1272,0,0,
0,0,1330,1331,1331,1331,1331,1331,1331,1331,1331,1331,1331,1331,1331,1331,1331,1331,1331,1331,1331,1331,1331,1331,1331,1331,1331,1332,0,0,
0,0,1330,1331,1331,1331,1331,1331,1331,1331,1331,1331,1331,1331,1331,1331,1331,1331,1331,1331,1331,1331,1331,1331,1331,1331,1331,1332,0,0,
0,0,1390,1391,1391,1391,1391,1391,1391,1391,1391,1391,1391,1391,1391,1391,1391,1391,1391,1391,1391,1391,1391,1391,1391,1391,1391,1392,0,0,
0,0,0,0,0,0,0,0,0,0,0,0,0,0,0,0,0,0,0,0,0,0,0,0,0,0,0,0,0,0,
0,0,0,0,0,17032,17033,17032,17033,0,0,0,0,17032,17033,17032,17033,0,0,0,0,17032,17033,17032,17033,0,0,0,0,0,
0,0,0,0,0,17034,17035,17034,17035,0,0,0,0,17034,17035,17034,17035,0,0,0,0,17034,17035,17034,17035,0,0,0,0,0,
0,0,0,0,0,0,0,0,0,0,0,0,0,0,0,0,0,0,0,0,0,0,0,0,0,0,0,0,0,0,
0,0,0,0,0,0,0,0,0,0,0,0,0,0,0,0,0,0,0,0,0,0,0,0,0,0,0,0,0,0,
0,0,0,0,0,0,0,0,0,0,0,0,0,0,0,0,0,0,0,0,0,0,0,0,0,0,0,0,0,0,
0,0,0,0,0,17032,17033,17032,17033,0,0,0,0,17032,17033,17032,17033,0,0,0,0,17032,17033,17032,17033,0,0,0,0,0,
0,0,0,0,0,17034,17035,17034,17035,0,0,0,0,17034,17035,17034,17035,0,0,0,0,17034,17035,17034,1405,0,0,0,0,0,
0,0,0,0,0,0,0,0,0,0,0,0,0,0,0,0,0,0,0,0,0,0,0,0,0,0,0,0,0,0,
0,0,0,0,0,0,0,0,0,0,0,0,0,0,0,0,0,0,0,0,0,0,0,0,0,0,0,0,0,0,
0,0,0,0,0,0,0,0,0,0,0,0,0,0,0,0,0,0,0,0,0,0,0,0,0,0,0,0,1405,1405,
0,0,0,0,0,17032,17033,17032,17033,0,0,0,0,17032,17033,17032,17033,0,0,0,0,17032,17033,17032,17033,0,0,0,0,0,
0,0,0,0,0,17034,17035,17034,17035,0,0,0,0,17034,17035,17034,17035,0,0,0,0,17034,17035,17034,17035,0,0,0,0,0,
0,0,0,0,0,0,0,0,0,0,0,0,0,0,0,0,0,0,0,0,0,0,0,0,0,0,0,0,0,0,
0,0,0,0,0,0,0,0,0,0,0,0,0,0,0,0,0,0,0,0,0,0,0,0,0,0,0,0,0,0,
0,0,0,0,0,0,0,0,0,0,0,0,0,0,0,0,0,0,0,0,0,0,0,0,0,0,0,0,0,0,
0,0,0,0,0,0,0,0,0,0,0,0,0,0,0,0,0,0,0,0,0,0,0,0,0,0,0,0,0,0,
0,0,0,0,0,0,0,0,0,0,0,0,0,0,0,0,0,0,0,0,0,0,0,0,0,0,0,0,0,0,
0,0,0,0,0,0,0,0,0,0,0,0,0,0,0,0,0,0,0,0,0,0,0,0,0,0,0,0,0,0,
0,0,0,0,0,0,0,0,0,0,0,0,0,0,0,0,0,0,0,0,0,0,0,0,0,0,0,0,0,0
</data>
 </layer>
 <layer id="3" name="가구2" width="30" height="30">
  <data encoding="csv">
0,0,0,0,0,0,0,0,0,0,0,0,0,0,0,0,0,0,0,0,0,0,0,0,0,0,0,0,0,0,
0,0,0,0,0,0,0,0,0,0,0,0,0,0,0,0,0,0,0,0,0,0,0,0,0,0,0,0,0,0,
0,0,0,0,0,0,0,0,0,0,0,0,0,0,0,0,0,0,0,0,0,0,0,0,0,0,0,0,0,0,
0,0,0,0,0,0,0,0,0,0,0,0,0,0,0,0,0,0,0,0,0,0,0,0,0,0,0,0,0,0,
0,0,0,0,0,0,0,0,0,0,0,0,0,0,0,0,0,0,0,0,0,0,0,0,0,0,0,0,0,0,
0,0,0,0,0,0,0,0,0,0,0,0,0,17040,17041,17042,17043,0,0,0,0,0,0,0,0,0,0,0,0,0,
0,0,0,0,0,0,0,0,0,0,0,0,0,17044,17045,17046,17047,0,0,0,0,0,0,0,0,0,0,0,0,0,
0,0,0,0,0,0,0,0,0,0,0,0,0,17048,17049,17050,17051,0,0,0,0,0,0,0,0,0,0,1523,0,0,
0,0,0,0,0,0,0,0,0,0,0,0,0,17052,17053,17054,17055,0,0,0,0,0,0,0,0,0,0,1583,0,0,
0,0,0,0,0,0,0,0,0,0,0,0,0,0,0,0,0,0,0,0,0,0,0,0,0,0,0,1643,0,0,
0,0,0,0,0,0,0,0,0,0,0,0,0,0,0,0,0,0,0,0,0,0,0,0,0,0,0,0,0,0,
0,0,0,0,0,17036,17037,17036,17037,0,0,0,0,17036,17037,17036,17037,0,0,0,0,17036,17037,17036,17037,0,0,0,0,0,
0,0,0,0,0,17038,17039,17038,17039,0,0,0,0,17038,17039,17038,17039,0,0,0,0,17038,17039,17038,17039,0,0,0,0,0,
0,0,0,0,0,0,0,0,0,0,0,0,0,0,0,0,0,0,0,0,0,0,0,0,0,0,0,0,0,0,
0,0,0,0,0,0,0,0,0,0,0,0,0,0,0,0,0,0,0,0,0,0,0,0,0,0,0,0,0,0,
0,0,0,0,0,0,0,0,0,0,0,0,0,0,0,0,0,0,0,0,0,0,0,0,0,0,0,0,0,0,
0,0,0,0,0,17036,17037,17036,17037,0,0,0,0,17036,17037,17036,17037,0,0,0,0,17036,17037,17036,17037,0,0,0,0,0,
0,0,0,0,0,17038,17039,17038,17039,0,0,0,0,17038,17039,17038,17039,0,0,0,0,17038,17039,17038,17039,0,0,0,0,0,
0,0,0,0,0,0,0,0,0,0,0,0,0,0,0,0,0,0,0,0,0,0,0,0,0,0,0,0,0,0,
0,0,0,0,0,0,0,0,0,0,0,0,0,0,0,0,0,0,0,0,0,0,0,0,0,0,0,0,0,0,
0,0,0,0,0,0,0,0,0,0,0,0,0,0,0,0,0,0,0,0,0,0,0,0,0,0,0,0,0,0,
0,0,0,0,0,17036,17037,17036,17037,0,0,0,0,17036,17037,17036,17037,0,0,0,0,17036,17037,17036,17037,0,0,0,0,0,
0,0,0,0,0,17038,17039,17038,17039,0,0,0,0,17038,17039,17038,17039,0,0,0,0,17038,17039,17038,17039,0,0,0,0,0,
0,0,0,0,0,0,0,0,0,0,0,0,0,0,0,0,0,0,0,0,0,0,0,0,0,0,0,0,0,0,
0,0,0,0,0,0,0,0,0,0,0,0,0,0,0,0,0,0,0,0,0,0,0,0,0,0,0,0,0,0,
0,0,0,0,0,0,0,0,0,0,0,0,0,0,0,0,0,0,0,0,0,0,0,0,0,0,0,0,0,0,
0,0,0,0,0,0,0,0,0,0,0,0,0,0,0,0,0,0,0,0,0,0,0,0,0,0,0,0,0,0,
0,0,0,0,0,0,0,0,0,0,0,0,0,0,0,0,0,0,0,0,0,0,0,0,0,0,0,0,0,0,
0,0,0,0,0,0,0,0,0,0,0,0,0,0,0,0,0,0,0,0,0,0,0,0,0,0,0,0,0,0,
0,0,0,0,0,0,0,0,0,0,0,0,0,0,0,0,0,0,0,0,0,0,0,0,0,0,0,0,0,0
</data>
 </layer>
 <objectgroup id="5" name="Object Layer 1">
  <object id="2" name="book_dark" gid="18425" x="176" y="386.667" width="32" height="32"/>
  <object id="3" name="book_fire" gid="18426" x="240" y="386.667" width="32" height="32"/>
  <object id="4" name="book_ice" gid="18427" x="433.333" y="385.333" width="32" height="32"/>
  <object id="5" name="book_light" gid="18428" x="496" y="386.667" width="32" height="32"/>
 </objectgroup>
</map>
