<?xml version="1.0" encoding="UTF-8"?>
<map version="1.10" tiledversion="1.10.2" orientation="orthogonal" renderorder="right-down" width="30" height="30" tilewidth="32" tileheight="32" infinite="0" nextlayerid="5" nextobjectid="1">
 <tileset firstgid="1" name="Floor2" tilewidth="32" tileheight="32" tilecount="0" columns="60">
  <image source="../../Downloads/Floor2.png" width="1920" height="4352"/>
 </tileset>
 <tileset firstgid="1804" name="Wall" tilewidth="32" tileheight="32" tilecount="0" columns="25">
  <image source="../../Downloads/Wall.png" width="800" height="10272"/>
 </tileset>
 <tileset firstgid="7122" name="—Pngtree—green chalkboard background horizontal version_6028660" tilewidth="32" tileheight="32" tilecount="0" columns="37">
  <image source="../../Downloads/—Pngtree—green chalkboard background horizontal version_6028660.png" width="1200" height="1200"/>
 </tileset>
 <tileset firstgid="7968" name="free-icon-table-8242725" tilewidth="32" tileheight="32" tilecount="0" columns="2">
  <image source="../../Downloads/free-icon-table-8242725.png" width="64" height="64"/>
 </tileset>
 <tileset firstgid="7972" name="free-icon-chair-9191726" tilewidth="32" tileheight="32" tilecount="0" columns="2">
  <image source="../../Downloads/free-icon-chair-9191726.png" width="64" height="64"/>
 </tileset>
 <tileset firstgid="7976" name="free-icon-bedside-table-13429322 (1)" tilewidth="32" tileheight="32" tilecount="0" columns="4">
  <image source="../../Downloads/free-icon-bedside-table-13429322 (1).png" width="128" height="128"/>
 </tileset>
 <tileset firstgid="7992" source="images/book_light.tsx"/>
 <tileset firstgid="7993" source="images/Exterior Decoration.tsx"/>
 <tileset firstgid="13513" source="images/Floor2.tsx"/>
 <layer id="1" name="바닥" width="30" height="30">
  <data encoding="csv">
1331,1331,1331,1331,1331,1331,1331,1331,1331,1331,1331,1331,1331,1331,1331,1331,1331,1331,1331,1331,1331,1331,1331,1331,1331,1331,1331,1331,1331,1331,
1331,1331,1331,1331,1331,1331,1331,1331,1331,1331,1331,1331,1331,1331,1331,1331,1331,1331,1331,1331,1331,1331,1331,1331,1331,1331,1331,1331,1331,1331,
1331,1331,1331,1331,1331,1331,1331,1331,1331,1331,1331,1331,1331,1331,1331,1331,1331,1331,1331,1331,1331,1331,1331,1331,1331,1331,1331,1331,1331,1331,
1331,1331,1331,1331,1331,1331,1331,1331,1331,1331,1331,1331,1331,1331,1331,1331,1331,1331,1331,1331,1331,1331,1331,1331,1331,1331,1331,1331,1331,1331,
1331,1331,1331,1331,1331,1331,1331,1331,1331,1331,1331,1331,1331,1331,1331,1331,1331,1331,1331,1331,1331,1331,1331,1331,1331,1331,1331,1331,1331,1331,
1331,1331,1331,1331,1331,1331,1331,1331,1331,1331,1331,1331,1331,1331,1331,1331,1331,1331,1331,1331,1331,1331,1331,1331,1331,1331,1331,1331,1331,1331,
1803,1802,1802,1802,1741,1741,1741,1742,1803,1743,1802,1743,1801,1801,1741,1801,1803,1801,1743,1801,1741,1743,1742,1742,1743,1741,1741,1742,1803,1741,
1803,1802,1803,1741,1742,1743,1742,1803,1743,1802,1743,1743,1802,1742,1743,1742,1802,1801,1801,1743,1743,1742,1742,1803,1743,1741,1803,1803,1743,1742,
1801,1802,1803,1741,1801,1743,1801,1802,1741,1803,1741,1743,1741,1803,1741,1801,1742,1801,1802,1803,1743,1801,1743,1743,1803,1741,1801,1801,1802,1802,
1741,1803,1802,1743,1801,1743,1741,1742,1802,1741,1801,1743,1802,1801,1802,1802,1742,1742,1743,1802,1742,1743,1741,1741,1802,1802,1801,1742,1803,1742,
14293,14293,14293,14293,14293,14293,14293,14293,14293,14293,14293,14293,14293,14293,14293,14293,14293,14293,14293,14293,14293,14293,14293,14294,14293,14293,14293,14294,14295,1743,
14293,14294,14293,14353,14354,1742,1743,1742,1741,14293,14294,14295,14295,1743,1802,1801,1743,14293,14293,14294,14295,7992,14293,14293,14293,14293,14293,14294,14295,1802,
14353,14354,14353,14353,14354,1802,1802,1743,1742,14293,14294,14295,14295,1741,1803,1743,1802,14293,14293,14294,14295,1742,1802,1803,1802,14293,14294,14295,14295,1803,
14293,14293,14293,14293,14293,14293,14293,14293,14293,14293,14293,14293,14293,14293,14293,14293,14293,14293,14293,14294,14295,14293,14293,14293,14293,14293,14293,14293,14294,1801,
14293,14294,14294,14294,14294,14294,14294,14294,14294,14294,14294,14294,14294,14294,14294,14294,14294,14294,14294,14294,14294,14294,14294,14294,14294,14294,14294,14294,14294,1802,
14353,14293,14294,14293,14294,14354,14354,14354,14354,14354,14354,14354,14354,14354,14354,14354,14354,14354,14354,14354,14354,14354,14354,14354,14354,14354,14354,14354,14354,1741,
14293,14293,14294,14293,14294,1801,1742,1802,1741,14293,14293,14293,14294,1801,1743,1743,1802,14293,14294,14293,14294,1743,1803,1801,1742,14293,14294,14293,14294,1743,
14293,14293,14294,14293,14294,1801,1801,1742,1803,14353,14353,14353,14354,1802,1741,1741,1742,14353,14354,14353,14354,1801,1743,1742,1801,14353,14354,14293,14294,1743,
14293,14293,14294,14293,14293,14293,14293,14293,14293,14293,14293,14293,14293,14293,14293,14293,14293,14293,14293,14293,14293,14293,14293,14293,14293,14293,14293,14293,14294,1801,
14293,14293,14294,14293,14293,14293,14293,14293,14293,14293,14294,14353,14353,14353,14293,14294,14294,14294,14294,14294,14353,14353,14353,14293,14294,14294,14294,14294,14294,1741,
14293,14293,14294,14293,14353,14353,14353,14353,14353,14293,14293,14294,14353,14354,14353,14354,14354,14354,14354,14354,14294,14294,14294,14294,14294,14354,14354,14354,18074,1802,
14293,14293,14294,14293,14294,1742,1802,1741,1741,14293,14293,14293,14294,1742,1742,1741,1743,14293,14293,14293,14294,14354,14354,14354,14354,14293,14294,14293,14294,1742,
14293,14353,14293,14294,14294,1743,1742,1741,1743,14353,14353,14353,14354,1801,1801,1801,1801,14353,14353,14353,14354,1802,1802,1742,1803,14293,14294,14353,14354,1741,
14293,14353,14293,14294,14354,14294,14294,14294,14294,14294,14294,14294,14294,14294,14294,14294,14294,14294,14294,14294,14294,14294,14294,14294,14294,14294,14294,14354,14294,1801,
14293,14353,14353,14354,14354,14354,14354,14354,14354,14354,14354,14354,14354,14354,14354,14354,14354,14354,14354,14354,14354,14354,14354,14354,14354,14354,14354,14354,14354,1742,
14293,14293,14353,14354,14293,14293,14293,14293,14293,14293,14293,14293,14293,14293,14293,14293,14293,14293,14293,14293,14293,14293,14293,14293,14293,14294,14293,14353,14354,1802,
14293,14353,14353,14353,14353,14353,14353,14353,14353,14353,14353,14353,14353,14353,14353,14353,14353,14353,14353,14353,14353,14353,14353,14353,14353,14354,14294,14353,14354,1742,
14353,14353,14353,14353,14353,14353,14353,14353,14353,14353,14353,14353,14353,14353,14353,14353,14353,14353,14353,14353,14353,14353,14353,14353,14353,14354,14354,14353,14354,1743,
1803,1743,1741,1742,1802,1803,1803,1802,1801,1743,1802,1741,1742,1743,1743,1743,1802,1743,1802,1743,1803,1803,1802,1803,1741,1742,1801,1803,1801,1801,
1802,1743,1742,1741,1803,1743,1803,1802,1802,1803,1803,1802,1742,1802,1742,1801,1803,1802,1742,1803,1801,1742,1743,1801,1742,1742,1801,1741,1743,1742
</data>
 </layer>
 <layer id="4" name="벽" width="30" height="30">
  <data encoding="csv">
15735,15735,15735,15803,15803,15803,15803,15803,15733,15734,15733,15733,15733,15733,15733,15733,15733,15733,15733,15733,15733,15733,15733,15733,15733,15733,15733,15733,15734,15735,
15735,15735,15803,15803,15803,15803,15803,15803,15733,15734,15793,15793,15793,15793,15793,15793,15793,15793,15793,15793,15793,15793,15733,15733,15733,15733,15733,15733,15734,15735,
15735,15735,15803,15803,15803,15803,15803,15803,15733,15734,15793,15794,15733,15733,15733,15733,15733,15733,15733,15734,15735,15733,15734,15735,15735,15735,15733,15734,15735,15735,
15735,15735,15803,15803,15803,15803,15803,15803,15733,15734,15793,15794,15793,15733,15734,15735,15735,15735,15733,15734,15735,15733,15733,15733,15733,15734,15793,15794,15795,15735,
15735,15735,15803,15803,15803,15803,15803,15803,15733,15734,15793,15794,15795,15793,15794,15795,15795,15733,15734,15735,15733,15734,15793,15733,15793,15794,15793,15794,15795,15735,
15735,15735,15803,15803,15803,15803,15803,15803,15733,15734,15793,15794,15795,13643,13643,13643,13643,15733,15734,15735,15733,15734,15735,15733,15793,15794,15793,15794,15795,15735,
15735,15735,15803,15803,15803,15803,15803,15803,15733,15734,15793,15794,15795,13643,13643,13643,13643,15733,15733,15734,15733,15734,15735,15733,15793,15794,15793,15794,15795,15735,
15735,15735,15803,15803,15803,15803,15803,15803,15733,15734,15793,15794,15795,13643,13643,13643,13643,15793,15733,15734,15733,15734,15733,15734,15793,15794,15795,0,15735,15795,
15735,15735,15803,15803,15803,15803,15803,15803,15733,15733,15793,15794,15795,13643,13643,13643,13643,15735,15733,15734,15733,15734,15733,15733,15793,15794,15795,0,15735,15795,
15735,15735,15803,15803,15803,15803,15803,15803,15793,15793,15793,15794,15735,15735,15735,15735,15735,15735,15793,15794,15793,15794,15793,15793,15793,15794,15795,0,15795,15735,
0,0,0,0,0,0,0,0,0,0,0,0,0,0,0,0,0,0,0,0,0,0,0,0,0,0,0,0,0,15735,
0,0,0,0,0,0,0,0,0,0,0,0,0,0,0,0,0,0,0,0,0,13643,0,0,0,0,0,0,0,15735,
0,0,0,0,0,0,0,0,0,0,0,0,0,0,0,0,0,0,0,0,0,0,0,0,0,0,0,0,0,15795,
0,0,0,0,0,0,0,0,0,0,0,0,0,0,0,0,0,0,0,0,0,0,0,0,0,0,0,0,0,15735,
0,0,0,0,0,0,0,0,0,0,0,0,0,0,0,0,0,0,0,0,0,0,0,0,0,0,0,0,0,15735,
0,0,0,0,0,0,0,0,0,0,0,0,0,0,0,0,0,0,0,0,0,0,0,0,0,0,0,0,0,15735,
0,0,0,0,0,0,0,0,0,0,0,0,0,0,0,0,0,0,0,0,0,0,0,0,0,0,0,0,0,15735,
0,0,0,0,0,0,0,0,0,0,0,0,0,0,0,0,0,0,0,0,0,0,0,0,0,0,0,0,0,15735,
0,0,0,0,0,0,0,0,0,0,0,0,0,0,0,0,0,0,0,0,0,0,0,0,0,0,0,0,0,15735,
0,0,0,0,0,0,0,0,0,0,0,0,0,0,0,0,0,0,0,0,0,0,0,0,0,0,0,0,0,15735,
0,0,0,0,0,0,0,0,0,0,0,0,0,0,0,0,0,0,0,0,0,0,0,0,0,0,0,0,0,15735,
0,0,0,0,0,0,0,0,0,0,0,0,0,0,0,0,0,0,0,0,0,0,0,0,0,0,0,0,0,15735,
0,0,0,0,0,0,0,0,0,0,0,0,0,0,0,0,0,0,0,0,0,0,0,0,0,0,0,0,0,15735,
0,0,0,0,0,0,0,0,0,0,0,0,0,0,0,0,0,0,0,0,0,0,0,0,0,0,0,0,0,15735,
0,0,0,0,0,0,0,0,0,0,0,0,0,0,0,0,0,0,0,0,0,0,0,0,0,0,0,0,0,15735,
0,0,0,0,0,0,0,0,0,0,0,0,0,0,0,0,0,0,0,0,0,0,0,0,0,0,0,0,0,15795,
0,0,0,0,0,0,0,0,0,0,0,0,0,0,0,0,0,0,0,0,0,0,0,0,0,0,0,0,0,15735,
0,0,0,0,0,0,0,0,0,0,0,0,0,0,0,0,0,0,0,0,0,0,0,0,0,0,0,0,0,15795,
15733,15733,15733,15733,15733,15733,15733,15733,15733,15733,15733,15733,15734,15733,15733,15733,15733,15733,15733,15733,15733,15733,15733,15733,15733,15733,15733,15733,15734,15735,
15793,15793,15793,15793,15793,15793,15793,15793,15793,15793,15793,15733,15733,15793,15793,15793,15793,15793,15793,15793,15793,15793,15793,15793,15793,15793,15793,15793,15794,15795
</data>
 </layer>
 <layer id="2" name="가구1" width="30" height="30">
  <data encoding="csv">
0,0,7461,7462,7463,7464,7465,7467,7468,7469,7470,7471,7472,7473,7474,7475,7476,7477,7478,7479,7480,7481,7482,7481,7482,7483,7484,7485,7486,0,
0,0,7498,7499,7500,7501,7502,7504,7505,7506,7507,7508,7509,7510,7511,7512,7513,7514,7515,7516,7517,7518,7519,7518,7519,7520,7521,7522,7523,0,
0,0,7535,7536,7537,7538,7539,7541,7542,7543,7544,7545,7546,7547,7548,7549,7550,7551,7552,7553,7554,7555,7556,7555,7556,7557,7558,7559,7560,0,
0,0,7868,7869,7870,7871,7872,7873,7874,7875,7876,7877,7878,7879,7880,7881,7882,7883,7884,7885,7886,7887,7888,7888,7889,7890,7891,7892,7893,0,
0,0,7905,7906,7907,7908,7909,7910,7911,7912,7913,7914,7915,7916,7917,7918,7919,7920,7921,7922,7923,7924,7925,7925,7926,7927,7928,7929,7930,0,
0,0,7942,7943,7944,7945,7946,7947,7948,7949,7950,7951,7952,7953,7954,7955,7956,7957,7958,7959,7960,7961,7962,7962,7963,7964,7965,7966,7967,0,
0,0,1270,1271,1271,1271,1271,1271,1271,1271,1271,1271,1271,1271,1271,1271,1271,1271,1271,1271,1271,1271,1271,1271,1271,1271,1271,1272,0,0,
0,0,1330,1331,1331,1331,1331,1331,1331,1331,1331,1331,1331,1331,1331,1331,1331,1331,1331,1331,1331,1331,1331,1331,1331,1331,1331,1332,0,0,
0,0,1330,1331,1331,1331,1331,1331,1331,1331,1331,1331,1331,1331,1331,1331,1331,1331,1331,1331,1331,1331,1331,1331,1331,1331,1331,1332,0,0,
0,0,1390,1391,1391,1391,1391,1391,1391,1391,1391,1391,1391,1391,1391,1391,1391,1391,1391,1391,1391,1391,1391,1391,1391,1391,1391,1392,0,0,
0,0,0,0,0,0,0,0,0,0,0,0,0,0,0,0,0,0,0,0,0,0,0,0,0,0,0,0,0,0,
0,0,0,0,0,7968,7969,7968,7969,0,0,0,0,7968,7969,7968,7969,0,0,0,0,7968,7969,7968,7969,0,0,0,0,0,
0,0,0,0,0,7970,7971,7970,7971,0,0,0,0,7970,7971,7970,7971,0,0,0,0,7970,7971,7970,7971,0,0,0,0,0,
0,0,0,0,0,0,0,0,0,0,0,0,0,0,0,0,0,0,0,0,0,0,0,0,0,0,0,0,0,0,
0,0,0,0,0,0,0,0,0,0,0,0,0,0,0,0,0,0,0,0,0,0,0,0,0,0,0,0,0,0,
0,0,0,0,0,0,0,0,0,0,0,0,0,0,0,0,0,0,0,0,0,0,0,0,0,0,0,0,0,0,
0,0,0,0,0,7968,7969,7968,7969,0,0,0,0,7968,7969,7968,7969,0,0,0,0,7968,7969,7968,7969,0,0,0,0,0,
0,0,0,0,0,7970,7971,7970,7971,0,0,0,0,7970,7971,7970,7971,0,0,0,0,7970,7971,7970,1405,0,0,0,0,0,
0,0,0,0,0,0,0,0,0,0,0,0,0,0,0,0,0,0,0,0,0,0,0,0,0,0,0,0,0,0,
0,0,0,0,0,0,0,0,0,0,0,0,0,0,0,0,0,0,0,0,0,0,0,0,0,0,0,0,0,0,
0,0,0,0,0,0,0,0,0,0,0,0,0,0,0,0,0,0,0,0,0,0,0,0,0,0,0,0,1405,1405,
0,0,0,0,0,7968,7969,7968,7969,0,0,0,0,7968,7969,7968,7969,0,0,0,0,7968,7969,7968,7969,0,0,0,0,0,
0,0,0,0,0,7970,7971,7970,7971,0,0,0,0,7970,7971,7970,7971,0,0,0,0,7970,7971,7970,7971,0,0,0,0,0,
0,0,0,0,0,0,0,0,0,0,0,0,0,0,0,0,0,0,0,0,0,0,0,0,0,0,0,0,0,0,
0,0,0,0,0,0,0,0,0,0,0,0,0,0,0,0,0,0,0,0,0,0,0,0,0,0,0,0,0,0,
0,0,0,0,0,0,0,0,0,0,0,0,0,0,0,0,0,0,0,0,0,0,0,0,0,0,0,0,0,0,
0,0,0,0,0,0,0,0,0,0,0,0,0,0,0,0,0,0,0,0,0,0,0,0,0,0,0,0,0,0,
0,0,0,0,0,0,0,0,0,0,0,0,0,0,0,0,0,0,0,0,0,0,0,0,0,0,0,0,0,0,
0,0,0,0,0,0,0,0,0,0,0,0,0,0,0,0,0,0,0,0,0,0,0,0,0,0,0,0,0,0,
0,0,0,0,0,0,0,0,0,0,0,0,0,0,0,0,0,0,0,0,0,0,0,0,0,0,0,0,0,0
</data>
 </layer>
 <layer id="3" name="가구2" width="30" height="30">
  <data encoding="csv">
0,0,0,0,0,0,0,0,0,0,0,0,0,0,0,0,0,0,0,0,0,0,0,0,0,0,0,0,0,0,
0,0,0,0,0,0,0,0,0,0,0,0,0,0,0,0,0,0,0,0,0,0,0,0,0,0,0,0,0,0,
0,0,0,0,0,0,0,0,0,0,0,0,0,0,0,0,0,0,0,0,0,0,0,0,0,0,0,0,0,0,
0,0,0,0,0,0,0,0,0,0,0,0,0,0,0,0,0,0,0,0,0,0,0,0,0,0,0,0,0,0,
0,0,0,0,0,0,0,0,0,0,0,0,0,0,0,0,0,0,0,0,0,0,0,0,0,0,0,0,0,0,
0,0,0,0,0,0,0,0,0,0,0,0,0,7976,7977,7978,7979,0,0,0,0,0,0,0,0,0,0,0,0,0,
0,0,0,0,0,0,0,0,0,0,0,0,0,7980,7981,7982,7983,0,0,0,0,0,0,0,0,0,0,0,0,0,
0,0,0,0,0,0,0,0,0,0,0,0,0,7984,7985,7986,7987,0,0,0,0,0,0,0,0,0,0,1523,0,0,
0,0,0,0,0,0,0,0,0,0,0,0,0,7988,7989,7990,7991,0,0,0,0,0,0,0,0,0,0,1583,0,0,
0,0,0,0,0,0,0,0,0,0,0,0,0,0,0,0,0,0,0,0,0,0,0,0,0,0,0,1643,0,0,
0,0,0,0,0,0,0,0,0,0,0,0,0,0,0,0,0,0,0,0,0,0,0,0,0,0,0,0,0,0,
0,0,0,0,0,7972,7973,7972,7973,0,0,0,0,7972,7973,7972,7973,0,0,0,0,7972,7973,7972,7973,0,0,0,0,0,
0,0,0,0,0,7974,7975,7974,7975,0,0,0,0,7974,7975,7974,7975,0,0,0,0,7974,7975,7974,7975,0,0,0,0,0,
0,0,0,0,0,0,0,0,0,0,0,0,0,0,0,0,0,0,0,0,0,0,0,0,0,0,0,0,0,0,
0,0,0,0,0,0,0,0,0,0,0,0,0,0,0,0,0,0,0,0,0,0,0,0,0,0,0,0,0,0,
0,0,0,0,0,0,0,0,0,0,0,0,0,0,0,0,0,0,0,0,0,0,0,0,0,0,0,0,0,0,
0,0,0,0,0,7972,7973,7972,7973,0,0,0,0,7972,7973,7972,7973,0,0,0,0,7972,7973,7972,7973,0,0,0,0,0,
0,0,0,0,0,7974,7975,7974,7975,0,0,0,0,7974,7975,7974,7975,0,0,0,0,7974,7975,7974,7975,0,0,0,0,0,
0,0,0,0,0,0,0,0,0,0,0,0,0,0,0,0,0,0,0,0,0,0,0,0,0,0,0,0,0,0,
0,0,0,0,0,0,0,0,0,0,0,0,0,0,0,0,0,0,0,0,0,0,0,0,0,0,0,0,0,0,
0,0,0,0,0,0,0,0,0,0,0,0,0,0,0,0,0,0,0,0,0,0,0,0,0,0,0,0,0,0,
0,0,0,0,0,7972,7973,7972,7973,0,0,0,0,7972,7973,7972,7973,0,0,0,0,7972,7973,7972,7973,0,0,0,0,0,
0,0,0,0,0,7974,7975,7974,7975,0,0,0,0,7974,7975,7974,7975,0,0,0,0,7974,7975,7974,7975,0,0,0,0,0,
0,0,0,0,0,0,0,0,0,0,0,0,0,0,0,0,0,0,0,0,0,0,0,0,0,0,0,0,0,0,
0,0,0,0,0,0,0,0,0,0,0,0,0,0,0,0,0,0,0,0,0,0,0,0,0,0,0,0,0,0,
0,0,0,0,0,0,0,0,0,0,0,0,0,0,0,0,0,0,0,0,0,0,0,0,0,0,0,0,0,0,
0,0,0,0,0,0,0,0,0,0,0,0,0,0,0,0,0,0,0,0,0,0,0,0,0,0,0,0,0,0,
0,0,0,0,0,0,0,0,0,0,0,0,0,0,0,0,0,0,0,0,0,0,0,0,0,0,0,0,0,0,
0,0,0,0,0,0,0,0,0,0,0,0,0,0,0,0,0,0,0,0,0,0,0,0,0,0,0,0,0,0,
0,0,0,0,0,0,0,0,0,0,0,0,0,0,0,0,0,0,0,0,0,0,0,0,0,0,0,0,0,0
</data>
 </layer>
</map>
