<?xml version="1.0" encoding="UTF-8"?>
<map version="1.10" tiledversion="1.10.2" orientation="orthogonal" renderorder="right-down" width="30" height="30" tilewidth="32" tileheight="32" infinite="0" nextlayerid="6" nextobjectid="12">
 <tileset firstgid="1" name="Floor2" tilewidth="32" tileheight="32" tilecount="8160" columns="60">
  <image source="../../../../../../../Downloads/Floor2.png" width="1920" height="4352"/>
 </tileset>
 <tileset firstgid="8161" name="Wall" tilewidth="32" tileheight="32" tilecount="8025" columns="25">
  <image source="../../../../../../../Downloads/Wall.png" width="800" height="10272"/>
 </tileset>
 <tileset firstgid="16186" name="free-icon-table-8242725" tilewidth="32" tileheight="32" tilecount="4" columns="2">
  <image source="../../../../../../../Downloads/free-icon-table-8242725.png" width="64" height="64"/>
 </tileset>
 <tileset firstgid="16190" name="free-icon-chair-9191726" tilewidth="32" tileheight="32" tilecount="4" columns="2">
  <image source="../../../../../../../Downloads/free-icon-chair-9191726.png" width="64" height="64"/>
 </tileset>
 <tileset firstgid="16194" name="free-icon-bedside-table-13429322 (1)" tilewidth="32" tileheight="32" tilecount="16" columns="4">
  <image source="../../../../../../../Downloads/free-icon-bedside-table-13429322 (1).png" width="128" height="128"/>
 </tileset>
 <tileset firstgid="16210" source="../images/KakaoTalk_20240605_175919904.tsx"/>
 <tileset firstgid="17579" source="book_dark.tsx"/>
 <tileset firstgid="17580" source="book_fire.tsx"/>
 <tileset firstgid="17581" source="book_ice.tsx"/>
 <tileset firstgid="17582" source="book_light.tsx"/>
 <layer id="1" name="바닥" width="30" height="30">
  <data encoding="csv">
1331,1331,1331,1331,1331,1331,1331,1331,1331,1331,1331,1331,1331,1331,1331,1331,1331,1331,1331,1331,1331,1331,1331,1331,1331,1331,1331,1331,1331,1331,
1331,1331,1331,1331,1331,1331,1331,1331,1331,1331,1331,1331,1331,1331,1331,1331,1331,1331,1331,1331,1331,1331,1331,1331,1331,1331,1331,1331,1331,1331,
1331,1331,1331,1331,1331,1331,1331,1331,1331,1331,1331,1331,1331,1331,1331,1331,1331,1331,1331,1331,1331,1331,1331,1331,1331,1331,1331,1331,1331,1331,
1331,1331,1331,1331,1331,1331,1331,1331,1331,1331,1331,1331,1331,1331,1331,1331,1331,1331,1331,1331,1331,1331,1331,1331,1331,1331,1331,1331,1331,1331,
1331,1331,1331,1331,1331,1331,1331,1331,1331,1331,1331,1331,1331,1331,1331,1331,1331,1331,1331,1331,1331,1331,1331,1331,1331,1331,1331,1331,1331,1331,
1331,1331,1331,1331,1331,1331,1331,1331,1331,1331,1331,1331,1331,1331,1331,1331,1331,1331,1331,1331,1331,1331,1331,1331,1331,1331,1331,1331,1331,1331,
1803,1802,1802,1802,1741,1741,1741,1742,1803,1743,1802,1743,1801,1801,1741,1801,1803,1801,1743,1801,1741,1743,1742,1742,1743,1741,1741,1742,1803,1741,
1803,1802,1803,1741,1742,1743,1742,1803,1743,1802,1743,1743,1802,1742,1743,1742,1802,1801,1801,1743,1743,1742,1742,1803,1743,1741,1803,1803,1743,1742,
1801,1802,1803,1741,1801,1743,1801,1802,1741,1803,1741,1743,1741,1803,1741,1801,1742,1801,1802,1803,1743,1801,1743,1743,1803,1741,1801,1801,1802,1802,
1741,1803,1802,1743,1801,1743,1741,1742,1802,1741,1801,1743,1802,1801,1802,1802,1742,1742,1743,1802,1742,1743,1741,1741,1802,1802,1801,1742,1803,1742,
1801,1743,1801,1803,1803,1801,1743,1741,1743,1801,1741,1741,1743,1801,1742,1801,1801,1802,1743,1741,1741,1742,1742,1741,1801,1802,1741,1803,1741,1743,
1802,1803,1741,1742,1802,1742,1743,1742,1741,1741,1743,1803,1741,1743,1802,1801,1743,1803,1742,1803,1801,1742,1743,1742,1741,1802,1803,1802,1802,1802,
1741,1743,1742,1801,1742,1802,1802,1743,1742,1801,1741,1802,1742,1741,1803,1743,1802,1741,1742,1742,1743,1742,1802,1803,1802,1801,1741,1802,1742,1803,
1742,1742,1743,1803,1742,1801,1803,1803,1803,1801,1803,1802,1802,1803,1742,1802,1741,1742,1741,1803,1801,1802,1741,1743,1742,1802,1803,1741,1801,1801,
1802,1742,1802,1742,1742,1741,1742,1741,1741,1741,1741,1742,1801,1803,1742,1802,1741,1803,1741,1741,1801,1801,1801,1801,1743,1742,1742,1742,1803,1802,
1803,1741,1742,1742,1743,1741,1741,1801,1803,1801,1802,1742,1802,1742,1801,1742,1743,1801,1803,1742,1742,1801,1802,1741,1743,1743,1803,1742,1741,1741,
1741,1743,1803,1743,1742,1801,1742,1802,1741,1742,1803,1743,1741,1801,1743,1743,1802,1803,1801,1802,1803,1743,1803,1801,1742,1742,1802,1802,1803,1743,
1741,1802,1741,1741,1802,1801,1801,1742,1803,1742,1742,1742,1801,1802,1741,1741,1742,1743,1803,1741,1801,1801,1743,1742,1801,1802,1742,1803,1801,1743,
1743,1742,1801,1742,1802,1803,1803,1742,1743,1803,1741,1803,1743,1742,1801,1803,1802,1743,1801,1801,1741,1801,1741,1801,1742,1743,1801,1802,1741,1801,
1741,1803,1743,1803,1743,1801,1742,1743,1743,1803,1743,1743,1741,1742,1743,1743,1801,1741,1801,1742,1803,1802,1801,1803,1802,1802,1741,1802,1743,1741,
1743,1743,1741,1741,1742,1741,1742,1801,1741,1802,1741,1742,1741,1741,1802,1802,1741,1741,1801,1741,1803,1801,1742,1742,1743,1801,1743,1743,1742,1802,
1743,1743,1741,1743,1742,1742,1802,1741,1741,1802,1741,1742,1801,1742,1742,1741,1743,1742,1803,1742,1743,1741,1802,1743,1801,1802,1803,1743,1802,1742,
1802,1803,1741,1742,1742,1743,1742,1741,1743,1801,1802,1802,1741,1801,1801,1801,1801,1803,1802,1803,1803,1802,1802,1742,1803,1743,1803,1801,1802,1741,
1803,1743,1803,1802,1802,1801,1803,1742,1741,1741,1743,1741,1801,1802,1801,1802,1803,1741,1742,1801,1801,1802,1741,1742,1742,1801,1743,1801,1802,1801,
1742,1803,1803,1743,1802,1803,1803,1742,1802,1802,1802,1742,1802,1742,1741,1801,1743,1741,1743,1743,1801,1743,1802,1743,1801,1802,1803,1741,1802,1742,
1741,1803,1802,1743,1741,1803,1801,1802,1802,1803,1743,1802,1802,1742,1802,1741,1743,1802,1743,1741,1803,1741,1741,1803,1802,1742,1802,1741,1742,1802,
1803,1743,1743,1802,1801,1801,1741,1803,1743,1801,1741,1742,1743,1743,1742,1802,1802,1742,1743,1801,1803,1801,1743,1742,1742,1741,1743,1742,1741,1742,
1742,1803,1802,1801,1743,1802,1742,1743,1742,1801,1742,1741,1742,1801,1801,1741,1802,1743,1803,1741,1802,1742,1802,1803,1801,1741,1801,1802,1802,1743,
1803,1743,1741,1742,1802,1803,1803,1802,1801,1743,1802,1741,1742,1743,1743,1743,1802,1743,1802,1743,1803,1803,1802,1803,1741,1742,1801,1803,1801,1801,
1802,1743,1742,1741,1803,1743,1803,1802,1802,1803,1803,1802,1742,1802,1742,1801,1803,1802,1742,1803,1801,1742,1743,1801,1742,1742,1801,1741,1743,1742
</data>
 </layer>
 <layer id="4" name="벽" width="30" height="30">
  <properties>
   <property name="blocked" type="bool" value="true"/>
  </properties>
  <data encoding="csv">
0,0,16846,16847,16848,16849,16850,16851,16852,16853,16854,16855,16856,16857,16858,16859,16860,16861,16862,16863,16864,16865,16866,16867,16868,16869,16543,16543,16543,13267,
0,0,16883,16884,16885,16886,16887,16888,16889,16890,16891,16892,16893,16894,16895,16896,16897,16898,16899,16900,16901,16902,16903,16904,16905,16906,16543,16543,16543,13267,
0,0,16920,16921,16922,16923,16924,16925,16926,16927,16928,16929,16930,16931,16932,16933,16934,16935,16936,16937,16938,16939,16940,16941,16942,16943,16543,16543,16543,13267,
0,0,16957,16958,16959,16960,16961,16962,16963,16964,16965,16966,16967,16968,16969,16970,16971,16972,16973,16974,16975,16976,16977,16978,16979,16980,16543,16543,16543,13267,
0,0,16994,16995,16996,16997,16998,16999,17000,17001,17002,17003,17004,17005,17006,17007,17008,17009,17010,17011,17012,17013,17014,17015,17016,17017,16543,16543,16543,13267,
0,0,17031,17032,17033,17034,17035,17036,17037,17038,17039,17040,17041,17042,17043,17044,17045,17046,17047,17048,17049,17050,17051,17052,17053,17054,16543,16543,16543,13267,
0,0,0,0,0,0,0,0,0,0,0,0,0,0,0,0,0,0,0,0,0,0,0,0,0,0,0,0,0,13267,
0,0,0,0,0,0,0,0,0,0,0,0,0,0,0,0,0,0,0,0,0,0,0,0,0,0,0,0,0,13267,
0,0,0,0,0,0,0,0,0,0,0,0,0,0,0,0,0,0,0,0,0,0,0,0,0,0,0,0,0,13267,
0,0,0,0,0,0,0,0,0,0,0,0,0,0,0,0,0,0,0,0,0,0,0,0,0,0,0,0,0,13267,
0,0,0,0,0,0,0,0,0,0,0,0,0,0,0,0,0,0,0,0,0,0,0,0,0,0,0,0,0,13267,
0,0,0,0,0,0,0,0,0,0,0,0,0,0,0,0,0,0,0,0,0,0,0,0,0,0,0,0,0,13267,
0,0,0,0,0,0,0,0,0,0,0,0,0,0,0,0,0,0,0,0,0,0,0,0,0,0,0,0,0,13267,
0,0,0,0,0,0,0,0,0,0,0,0,0,0,0,0,0,0,0,0,0,0,0,0,0,0,0,0,0,13267,
0,0,0,0,0,0,0,0,0,0,0,0,0,0,0,0,0,0,0,0,0,0,0,0,0,0,0,0,0,13267,
0,0,0,0,0,0,0,0,0,0,0,0,0,0,0,0,0,0,0,0,0,0,0,0,0,0,0,0,0,13267,
0,0,0,0,0,0,0,0,0,0,0,0,0,0,0,0,0,0,0,0,0,0,0,0,0,0,0,0,0,13267,
0,0,0,0,0,0,0,0,0,0,0,0,0,0,0,0,0,0,0,0,0,0,0,0,0,0,0,0,0,13267,
0,0,0,0,0,0,0,0,0,0,0,0,0,0,0,0,0,0,0,0,0,0,0,0,0,0,0,0,0,13267,
0,0,0,0,0,0,0,0,0,0,0,0,0,0,0,0,0,0,0,0,0,0,0,0,0,0,0,0,0,13267,
0,0,0,0,0,0,0,0,0,0,0,0,0,0,0,0,0,0,0,0,0,0,0,0,0,0,0,0,0,13267,
0,0,0,0,0,0,0,0,0,0,0,0,0,0,0,0,0,0,0,0,0,0,0,0,0,0,0,0,0,13267,
0,0,0,0,0,0,0,0,0,0,0,0,0,0,0,0,0,0,0,0,0,0,0,0,0,0,0,0,0,13267,
0,0,0,0,0,0,0,0,0,0,0,0,0,0,0,0,0,0,0,0,0,0,0,0,0,0,0,0,0,13267,
0,0,0,0,0,0,0,0,0,0,0,0,0,0,0,0,0,0,0,0,0,0,0,0,0,0,0,0,0,13267,
0,0,0,0,0,0,0,0,0,0,0,0,0,0,0,0,0,0,0,0,0,0,0,0,0,0,0,0,0,13267,
0,0,0,0,0,0,0,0,0,0,0,0,0,0,0,0,0,0,0,0,0,0,0,0,0,0,0,0,0,13266,
0,0,0,0,0,0,0,0,0,0,0,0,0,0,0,0,0,0,0,0,0,0,0,0,0,0,0,0,0,13266,
13368,13363,13363,13363,13363,13363,13363,13363,13363,13277,13277,13363,13363,13363,13363,13363,13363,13363,13363,13277,13277,13363,13363,13450,13451,13452,13452,13453,13363,13366,
13393,13388,13388,13388,13388,13388,13388,13388,13388,13302,13302,13388,13388,13388,13388,13388,13388,13388,13388,13302,13302,13388,13388,13475,13476,13477,13477,13478,13388,13394
</data>
 </layer>
 <layer id="2" name="가구1" width="30" height="30">
  <data encoding="csv">
0,0,0,0,0,0,0,0,0,0,0,0,0,0,0,0,0,0,0,0,0,0,0,0,16866,16867,16868,16869,0,0,
0,0,0,0,0,0,0,0,0,0,0,0,0,0,0,0,0,0,0,0,0,0,0,0,16903,16904,16905,16906,0,0,
0,0,0,0,0,0,0,0,0,0,0,0,0,0,0,0,0,0,0,0,0,0,0,0,16940,16941,16942,16943,0,0,
0,0,0,0,0,0,0,0,0,0,0,0,0,0,0,0,0,0,0,0,0,0,0,0,16977,16978,16979,16980,0,0,
0,0,0,0,0,0,0,0,0,0,0,0,0,0,0,0,0,0,0,0,0,0,0,0,17014,17015,17016,17017,0,0,
0,0,0,0,0,0,0,0,0,0,0,0,0,0,0,0,0,0,0,0,0,0,0,0,17051,17052,17053,17054,0,0,
0,0,1270,1271,1271,1271,1271,1271,1271,1271,1271,1271,1271,1271,1271,1271,1271,1271,1271,1271,1271,1271,1271,1271,1271,1271,1271,1272,0,0,
0,0,1330,1331,1331,1331,1331,1331,1331,1331,1331,1331,1331,1331,1331,1331,1331,1331,1331,1331,1331,1331,1331,1331,1331,1331,1331,1332,0,0,
0,0,1330,1331,1331,1331,1331,1331,1331,1331,1331,1331,1331,1331,1331,1331,1331,1331,1331,1331,1331,1331,1331,1331,1331,1331,1331,1332,0,0,
0,0,1390,1391,1391,1391,1391,1391,1391,1391,1391,1391,1391,1391,1391,1391,1391,1391,1391,1391,1391,1391,1391,1391,1391,1391,1391,1392,0,0,
0,0,0,0,0,0,0,0,0,0,0,0,0,0,0,0,0,0,0,0,0,0,0,0,0,0,0,0,0,0,
0,0,0,0,0,16186,16187,16186,16187,0,0,0,0,16186,16187,16186,16187,0,0,0,0,16186,16187,16186,16187,0,0,0,0,0,
0,0,0,0,0,16188,16189,16188,16189,0,0,0,0,16188,16189,16188,16189,0,0,0,0,16188,16189,16188,16189,0,0,0,0,0,
0,0,0,0,0,0,0,0,0,0,0,0,0,0,0,0,0,0,0,0,0,0,0,0,0,0,0,0,0,0,
0,0,0,0,0,0,0,0,0,0,0,0,0,0,0,0,0,0,0,0,0,0,0,0,0,0,0,0,0,0,
0,0,0,0,0,0,0,0,0,0,0,0,0,0,0,0,0,0,0,0,0,0,0,0,0,0,0,0,0,0,
0,0,0,0,0,16186,16187,16186,16187,0,0,0,0,16186,16187,16186,16187,0,0,0,0,16186,16187,16186,16187,0,0,0,0,0,
0,0,0,0,0,16188,16189,16188,16189,0,0,0,0,16188,16189,16188,16189,0,0,0,0,16188,16189,16188,1405,0,0,0,0,0,
0,0,0,0,0,0,0,0,0,0,0,0,0,0,0,0,0,0,0,0,0,0,0,0,0,0,0,0,0,0,
0,0,0,0,0,0,0,0,0,0,0,0,0,0,0,0,0,0,0,0,0,0,0,0,0,0,0,0,0,0,
0,0,0,0,0,0,0,0,0,0,0,0,0,0,0,0,0,0,0,0,0,0,0,0,0,0,0,0,1405,1405,
0,0,0,0,0,16186,16187,16186,16187,0,0,0,0,16186,16187,16186,16187,0,0,0,0,16186,16187,16186,16187,0,0,0,0,0,
0,0,0,0,0,16188,16189,16188,16189,0,0,0,0,16188,16189,16188,16189,0,0,0,0,16188,16189,16188,16189,0,0,0,0,0,
0,0,0,0,0,0,0,0,0,0,0,0,0,0,0,0,0,0,0,0,0,0,0,0,0,0,0,0,0,0,
0,0,0,0,0,0,0,0,0,0,0,0,0,0,0,0,0,0,0,0,0,0,0,0,0,0,0,0,0,0,
0,0,0,0,0,0,0,0,0,0,0,0,0,0,0,0,0,0,0,0,0,0,0,0,0,0,0,0,0,0,
0,0,0,0,0,0,0,0,0,0,0,0,0,0,0,0,0,0,0,0,0,0,0,0,0,0,0,0,0,0,
0,0,0,0,0,0,0,0,0,0,0,0,0,0,0,0,0,0,0,0,0,0,0,0,0,0,0,0,0,0,
0,0,0,0,0,0,0,0,0,0,0,0,0,0,0,0,0,0,0,0,0,0,0,0,0,0,0,0,0,0,
0,0,0,0,0,0,0,0,0,0,0,0,0,0,0,0,0,0,0,0,0,0,0,0,0,0,0,0,0,0
</data>
 </layer>
 <layer id="3" name="가구2" width="30" height="30">
  <data encoding="csv">
0,0,0,0,0,0,0,0,0,0,0,0,0,0,0,0,0,0,0,0,0,0,0,0,0,0,0,0,0,0,
0,0,0,0,0,0,0,0,0,0,0,0,0,0,0,0,0,0,0,0,0,0,0,0,0,0,0,0,0,0,
0,0,0,0,0,0,0,0,0,0,0,0,0,0,0,0,0,0,0,0,0,0,0,0,0,0,0,0,0,0,
0,0,0,0,0,0,0,0,0,0,0,0,0,0,0,0,0,0,0,0,0,0,0,0,0,0,0,0,0,0,
0,0,0,0,0,0,0,0,0,0,0,0,0,0,0,0,0,0,0,0,0,0,0,0,0,0,0,0,0,0,
0,0,0,0,0,0,0,0,0,0,0,0,0,16194,16195,16196,16197,0,0,0,0,0,0,0,0,0,0,0,0,0,
0,0,0,0,0,0,0,0,0,0,0,0,0,16198,16199,16200,16201,0,0,0,0,0,0,0,0,0,0,0,0,0,
0,0,0,0,0,0,0,0,0,0,0,0,0,16202,16203,16204,16205,0,0,0,0,0,0,0,0,0,0,1523,0,0,
0,0,0,0,0,0,0,0,0,0,0,0,0,16206,16207,16208,16209,0,0,0,0,0,0,0,0,0,0,1583,0,0,
0,0,0,0,0,0,0,0,0,0,0,0,0,0,0,0,0,0,0,0,0,0,0,0,0,0,0,1643,0,0,
0,0,0,0,0,0,0,0,0,0,0,0,0,0,0,0,0,0,0,0,0,0,0,0,0,0,0,0,0,0,
0,0,0,0,0,16190,16191,16190,16191,0,0,0,0,16190,16191,16190,16191,0,0,0,0,16190,16191,16190,16191,0,0,0,0,0,
0,0,0,0,0,16192,16193,16192,16193,0,0,0,0,16192,16193,16192,16193,0,0,0,0,16192,16193,16192,16193,0,0,0,0,0,
0,0,0,0,0,0,0,0,0,0,0,0,0,0,0,0,0,0,0,0,0,0,0,0,0,0,0,0,0,0,
0,0,0,0,0,0,0,0,0,0,0,0,0,0,0,0,0,0,0,0,0,0,0,0,0,0,0,0,0,0,
0,0,0,0,0,0,0,0,0,0,0,0,0,0,0,0,0,0,0,0,0,0,0,0,0,0,0,0,0,0,
0,0,0,0,0,16190,16191,16190,16191,0,0,0,0,16190,16191,16190,16191,0,0,0,0,16190,16191,16190,16191,0,0,0,0,0,
0,0,0,0,0,16192,16193,16192,16193,0,0,0,0,16192,16193,16192,16193,0,0,0,0,16192,16193,16192,16193,0,0,0,0,0,
0,0,0,0,0,0,0,0,0,0,0,0,0,0,0,0,0,0,0,0,0,0,0,0,0,0,0,0,0,0,
0,0,0,0,0,0,0,0,0,0,0,0,0,0,0,0,0,0,0,0,0,0,0,0,0,0,0,0,0,0,
0,0,0,0,0,0,0,0,0,0,0,0,0,0,0,0,0,0,0,0,0,0,0,0,0,0,0,0,0,0,
0,0,0,0,0,16190,16191,16190,16191,0,0,0,0,16190,16191,16190,16191,0,0,0,0,16190,16191,16190,16191,0,0,0,0,0,
0,0,0,0,0,16192,16193,16192,16193,0,0,0,0,16192,16193,16192,16193,0,0,0,0,16192,16193,16192,16193,0,0,0,0,0,
0,0,0,0,0,0,0,0,0,0,0,0,0,0,0,0,0,0,0,0,0,0,0,0,0,0,0,0,0,0,
0,0,0,0,0,0,0,0,0,0,0,0,0,0,0,0,0,0,0,0,0,0,0,0,0,0,0,0,0,0,
0,0,0,0,0,0,0,0,0,0,0,0,0,0,0,0,0,0,0,0,0,0,0,0,0,0,0,0,0,0,
0,0,0,0,0,0,0,0,0,0,0,0,0,0,0,0,0,0,0,0,0,0,0,0,0,0,0,0,0,0,
0,0,0,0,0,0,0,0,0,0,0,0,0,0,0,0,0,0,0,0,0,0,0,0,0,0,0,0,0,0,
0,0,0,0,0,0,0,0,0,0,0,0,0,0,0,0,0,0,0,0,0,0,0,0,0,0,0,0,0,0,
0,0,0,0,0,0,0,0,0,0,0,0,0,0,0,0,0,0,0,0,0,0,0,0,0,0,0,0,0,0
</data>
 </layer>
 <objectgroup id="5" name="Objects">
  <object id="2" name="book_dark" gid="17579" x="176" y="351.667" width="32" height="32"/>
  <object id="3" name="book_fire" gid="17580" x="240" y="349.667" width="32" height="32"/>
  <object id="4" name="book_ice" gid="17581" x="432.833" y="350.333" width="32" height="32"/>
  <object id="5" name="book_light" gid="17582" x="498" y="351.667" width="32" height="32"/>
  <object id="6" name="Player" x="162.667" y="511.667" width="60" height="58">
   <properties>
    <property name="character" type="int" value="2"/>
    <property name="characterType" value="0"/>
    <property name="sprite" value="sprites/Actor3.png"/>
   </properties>
  </object>
  <object id="8" name="book_dark" x="170.5" y="352.5" width="43.5" height="44.5"/>
  <object id="9" name="book_fire" x="237.5" y="354" width="39.5" height="44.5"/>
  <object id="10" name="book_ice" x="427.5" y="353" width="42.5" height="49.5"/>
  <object id="11" name="book_light" x="491.667" y="352.833" width="44.5" height="50.5"/>
 </objectgroup>
</map>
